<?xml version="1.0" encoding="UTF-8"?>
<map version="1.10" tiledversion="1.11.2" orientation="orthogonal" renderorder="right-down" width="15" height="11" tilewidth="32" tileheight="32" infinite="0" nextlayerid="15" nextobjectid="41">
 <editorsettings>
  <export target="connor_room.json" format="json"/>
 </editorsettings>
 <tileset firstgid="1" name="room_builder" tilewidth="32" tileheight="32" tilecount="8588" columns="76">
  <image source="../tilesets/room_builder.png" width="2432" height="3616"/>
 </tileset>
 <tileset firstgid="8589" name="bedroom" tilewidth="32" tileheight="32" tilecount="1712" columns="16">
  <image source="../tilesets/bedroom.png" width="512" height="3424"/>
 </tileset>
 <tileset firstgid="10301" name="beach" tilewidth="32" tileheight="32" tilecount="4000" columns="32">
  <image source="../tilesets/beach.png" width="1024" height="4000"/>
 </tileset>
 <tileset firstgid="14301" name="generic" tilewidth="32" tileheight="32" tilecount="1248" columns="16">
  <image source="../tilesets/generic.png" width="512" height="2496"/>
 </tileset>
 <tileset firstgid="15549" name="basement" tilewidth="32" tileheight="32" tilecount="800" columns="16">
  <image source="../tilesets/basement.png" width="512" height="1600"/>
 </tileset>
 <tileset firstgid="16349" name="living_room" tilewidth="32" tileheight="32" tilecount="720" columns="16">
  <image source="../tilesets/living_room.png" width="512" height="1440"/>
 </tileset>
 <tileset firstgid="17069" name="jail" tilewidth="32" tileheight="32" tilecount="720" columns="16">
  <image source="../tilesets/jail.png" width="512" height="1440"/>
 </tileset>
 <tileset firstgid="17789" name="tv" tilewidth="32" tileheight="32" tilecount="224" columns="16">
  <image source="../tilesets/tv.png" width="512" height="448"/>
 </tileset>
 <tileset firstgid="18013" name="halloween" tilewidth="32" tileheight="32" tilecount="976" columns="16">
  <image source="../tilesets/halloween.png" width="512" height="1952"/>
 </tileset>
 <tileset firstgid="18989" name="floors" tilewidth="32" tileheight="32" tilecount="600" columns="15">
  <image source="../tilesets/floors.png" width="480" height="1280"/>
 </tileset>
 <layer id="1" name="floor" width="15" height="11">
  <data encoding="csv">
0,0,0,0,0,0,0,0,0,0,0,0,0,0,0,
0,0,0,0,0,0,0,0,0,0,0,0,0,0,0,
0,0,0,0,0,0,0,0,0,0,0,0,0,0,0,
0,0,0,0,0,0,0,0,0,0,0,0,0,0,0,
0,0,0,0,0,0,0,0,0,0,0,0,0,0,0,
0,0,0,0,0,0,0,0,0,0,0,0,0,0,0,
2221,2221,2221,2221,2221,2221,2221,2221,2221,2221,2221,2221,2221,2221,2221,
2221,2221,2221,2221,2221,2221,2221,2221,2221,2221,2221,2221,2221,2221,2221,
2221,2221,2221,2221,2221,2221,2221,2221,2221,2221,2221,2221,2221,2221,2221,
2221,2221,2221,2221,2221,2221,2221,2221,2221,2221,2221,2221,2221,2221,2221,
2221,2221,2221,2221,2221,2221,2221,2221,2221,2221,2221,2221,2221,2221,2221
</data>
 </layer>
 <layer id="3" name="wall" width="15" height="11">
  <data encoding="csv">
4159,4312,4312,4312,4312,4312,4312,4312,4312,4312,4162,0,0,0,0,
4235,4388,4388,4388,4388,4388,4388,4388,4388,4388,4238,0,0,0,0,
4311,3426,3426,3426,3426,3426,3426,3426,3426,3426,4314,0,0,0,0,
4311,3426,3426,3426,3426,3426,3426,3426,3426,3426,4314,0,0,0,0,
4311,3426,3426,3426,3426,3426,3426,3426,3426,3426,4314,0,0,0,0,
4311,3505,3505,3505,3505,3505,3505,3505,3505,3505,4390,4313,4313,4313,4162,
4311,432,432,432,432,432,432,432,432,432,4466,4389,4389,4389,4238,
4311,0,0,18213,0,0,0,18214,0,0,9841,9842,9843,9844,4314,
4311,0,18212,0,0,0,0,0,0,0,9857,9858,9859,9860,4314,
4311,0,0,0,0,0,0,0,0,0,9873,9874,9875,9876,4314,
4311,0,0,0,0,1073760818,1073760818,0,0,0,0,0,0,0,4314
</data>
 </layer>
 <layer id="9" name="ladder" width="15" height="11">
  <data encoding="csv">
0,0,0,18260,18291,18259,0,18077,0,0,0,0,0,0,0,
0,0,0,18276,18307,18275,0,18093,0,0,0,0,0,0,0,
0,431,432,432,435,435,10026,10027,10028,432,0,0,0,0,0,
0,507,0,18917,0,0,0,0,0,0,0,0,0,0,0,
0,507,0,0,0,0,0,0,0,0,0,0,0,0,0,
0,507,0,0,0,0,0,0,0,18951,0,0,0,0,0,
0,507,0,0,0,0,0,0,0,18967,0,9734,0,0,0,
0,507,18109,18110,0,0,0,0,0,18983,0,9750,0,0,0,
0,507,18125,18126,0,0,0,0,0,0,0,0,0,0,0,
0,507,0,0,0,0,0,0,0,0,0,2147499903,16057,16058,0,
0,507,0,0,0,0,0,0,0,0,0,2147499919,16073,16074,0
</data>
 </layer>
 <layer id="7" name="bed" width="15" height="11">
  <data encoding="csv">
0,0,0,0,0,0,0,0,0,0,0,0,0,0,0,
0,0,0,0,0,0,0,15354,0,0,0,0,0,0,0,
0,0,0,0,0,0,0,0,0,0,0,0,0,0,0,
0,0,0,0,0,0,0,0,0,0,0,0,0,0,0,
0,0,0,0,0,0,0,0,0,0,0,0,0,0,0,
0,0,0,0,0,0,0,0,0,0,0,0,0,0,0,
0,0,0,0,0,0,0,0,0,0,0,9736,9555,9556,0,
0,0,0,0,0,0,0,0,0,0,0,0,9533,9534,0,
0,0,0,0,0,0,0,0,0,0,0,0,9599,9600,0,
0,0,0,0,0,0,0,0,0,0,0,0,0,0,0,
0,0,0,0,0,0,0,0,0,0,0,0,0,0,0
</data>
 </layer>
 <layer id="5" name="on_floor" width="15" height="11">
  <data encoding="csv">
0,0,0,0,0,0,0,0,0,0,0,0,0,0,0,
0,11325,11326,0,0,0,0,0,11325,11326,0,0,0,0,0,
0,11357,11358,0,17104,0,17102,0,11357,11358,0,0,0,0,0,
0,0,0,0,11265,11266,11267,0,0,0,0,0,0,0,0,
0,0,0,0,11297,11298,11299,0,0,0,0,0,0,0,0,
0,11043,11044,11045,11046,0,0,11047,11048,0,0,0,0,0,0,
0,11075,11076,11077,11078,11077,11078,11079,11080,0,0,0,0,0,0,
0,0,0,0,0,0,0,0,0,0,0,0,0,0,0,
0,0,0,0,0,0,0,0,0,0,0,0,0,0,0,
0,0,0,0,18214,0,0,0,0,0,0,0,0,0,0,
0,0,0,0,0,0,0,0,0,0,0,0,0,0,0
</data>
 </layer>
 <layer id="8" name="misc" width="15" height="11">
  <data encoding="csv">
17799,17800,17801,17803,17803,17803,17800,17803,17802,17803,17804,0,0,0,0,
0,18045,0,0,17815,17816,17817,0,0,0,0,0,0,0,0,
0,18061,0,0,17831,17832,17833,0,0,0,0,0,0,0,0,
0,18511,18512,0,0,0,0,0,0,0,0,0,0,0,0,
0,18527,18528,0,0,17103,0,0,0,0,0,0,0,0,0,
0,18543,18544,0,0,0,0,0,0,0,0,0,0,0,0,
0,0,0,0,0,0,18109,18110,0,0,0,0,0,0,0,
0,0,0,0,0,18294,18125,18126,0,0,0,0,0,0,0,
0,0,0,0,18333,18334,0,0,0,0,0,0,0,0,0,
0,0,0,0,18349,18350,0,0,0,0,0,0,0,0,0,
0,0,0,0,0,0,0,0,0,0,0,0,0,0,0
</data>
 </layer>
 <layer id="10" name="webs" width="15" height="11">
  <data encoding="csv">
0,0,0,0,0,0,0,0,0,0,0,0,0,0,0,
0,0,0,0,0,0,0,0,0,18048,0,0,0,0,0,
0,0,0,0,0,0,0,0,0,18064,0,0,0,0,0,
0,0,0,0,0,0,0,0,0,0,0,0,0,0,0,
0,0,0,0,0,0,0,0,0,0,0,0,0,0,0,
0,0,0,0,0,0,0,0,0,0,0,0,0,0,0,
0,0,0,0,0,0,0,0,0,0,0,0,0,0,0,
0,0,0,0,0,0,0,0,0,0,0,0,0,9428,0,
0,0,0,0,0,0,0,0,0,0,0,0,0,9444,0,
0,0,0,0,0,0,0,0,0,0,0,0,0,0,0,
0,0,0,0,0,0,0,0,0,0,0,0,0,0,0
</data>
 </layer>
 <layer id="11" name="collision" width="15" height="11" visible="0">
  <data encoding="csv">
864,864,864,864,864,864,864,864,864,864,864,0,0,0,0,
864,0,0,0,0,0,0,0,0,0,864,0,0,0,0,
864,0,0,0,0,0,0,0,0,0,864,0,0,0,0,
864,0,0,0,0,0,0,0,0,0,864,0,0,0,0,
864,0,0,0,0,0,0,0,0,0,0,0,0,0,0,
864,0,0,0,0,0,0,0,0,0,0,864,864,864,864,
864,0,0,0,0,0,0,0,0,0,0,864,864,864,864,
864,0,0,0,0,0,0,0,0,0,0,0,0,0,864,
864,0,0,0,0,0,0,0,0,0,0,0,0,0,864,
864,0,0,0,0,0,0,0,0,0,0,0,0,0,864,
864,0,0,0,0,0,0,0,0,0,0,0,0,0,864
</data>
 </layer>
 <objectgroup id="12" name="collision" visible="0">
  <object id="1" name="1" x="32.6667" y="345.333" width="130" height="5.33333"/>
  <object id="2" name="2" x="226" y="345.333" width="126.667" height="5.33333"/>
  <object id="4" name="3" x="129.333" y="108" width="90.6667" height="42.6667"/>
  <object id="5" name="4" x="267.334" y="35.3333" width="39.3333" height="58"/>
  <object id="6" name="5" x="46.6667" y="36.6667" width="38" height="56.6667"/>
  <object id="9" name="6" x="126" y="35.3333" width="96.6666" height="34.6667"/>
  <object id="13" name="7" x="32" y="32" width="287.333" height="26.6667"/>
  <object id="14" name="8" x="320.667" y="127.333" width="30.6667" height="91.3334"/>
  <object id="15" name="9" x="386" y="305.333" width="60" height="46.6667"/>
  <object id="16" name="10" x="386.667" y="256" width="59.3333" height="12"/>
  <object id="17" name="11" x="354.667" y="224" width="28.6667" height="8"/>
  <object id="18" name="12" x="76" y="242.667" width="38" height="16"/>
  <object id="19" name="13" x="202" y="210" width="42" height="17.3333"/>
  <object id="20" name="14" x="31.3333" y="187.333" width="254.666" height="25.3333"/>
  <object id="21" name="15" x="43.3333" y="104.667" width="40" height="70.6667"/>
  <object id="37" name="16" x="350.667" y="316" width="33.3333" height="35.3333"/>
 </objectgroup>
 <objectgroup id="14" name="objects" visible="0">
  <object id="23" name="power" x="219.333" y="33.3333" width="46" height="41.3333"/>
  <object id="24" name="dj" x="122.667" y="100" width="110" height="59.3334"/>
  <object id="25" name="bones" x="76" y="235.333" width="48.6667" height="42.6667"/>
  <object id="26" name="rail" x="204" y="205.333" width="47.3333" height="39.3333"/>
  <object id="33" name="door_to_apartment" x="159.333" y="347.333" width="68.6667" height="3.33333"/>
  <object id="34" name="player_spawn" x="186.667" y="312.667" width="14.6667" height="12.6667"/>
  <object id="38" name="tv" x="342" y="298.667" width="107.333" height="54.6667"/>
  <object id="39" name="screen" x="123.333" y="26.6667" width="102" height="56"/>
  <object id="40" name="coffin" x="37.3333" y="100" width="63.3333" height="80.6667"/>
 </objectgroup>
</map>
