<?xml version="1.0" encoding="UTF-8"?>
<map version="1.10" tiledversion="1.11.2" orientation="orthogonal" renderorder="right-down" width="15" height="11" tilewidth="32" tileheight="32" infinite="0" nextlayerid="20" nextobjectid="51">
 <editorsettings>
  <export target="connor_room2.json" format="json"/>
 </editorsettings>
 <tileset firstgid="1" name="room_builder" tilewidth="32" tileheight="32" tilecount="8588" columns="76">
  <image source="../tilesets/room_builder.png" width="2432" height="3616"/>
 </tileset>
 <tileset firstgid="8589" name="beach" tilewidth="32" tileheight="32" tilecount="4000" columns="32">
  <image source="../tilesets/beach.png" width="1024" height="4000"/>
 </tileset>
 <tileset firstgid="12589" name="generic" tilewidth="32" tileheight="32" tilecount="1248" columns="16">
  <image source="../tilesets/generic.png" width="512" height="2496"/>
 </tileset>
 <tileset firstgid="13837" name="tv" tilewidth="32" tileheight="32" tilecount="224" columns="16">
  <image source="../tilesets/tv.png" width="512" height="448"/>
 </tileset>
 <tileset firstgid="14061" name="halloween" tilewidth="32" tileheight="32" tilecount="976" columns="16">
  <image source="../tilesets/halloween.png" width="512" height="1952"/>
 </tileset>
 <tileset firstgid="15037" name="floors" tilewidth="32" tileheight="32" tilecount="600" columns="15">
  <image source="../tilesets/floors.png" width="480" height="1280"/>
 </tileset>
 <tileset firstgid="15637" name="conkortv" tilewidth="32" tileheight="32" tilecount="224" columns="16">
  <image source="../tilesets/conkortv.png" width="512" height="448"/>
 </tileset>
 <tileset firstgid="15861" name="laser" tilewidth="32" tileheight="32" tilecount="1440" columns="160">
  <image source="../tilesets/laser.png" width="5120" height="288"/>
  <tile id="641">
   <animation>
    <frame tileid="641" duration="150"/>
    <frame tileid="649" duration="150"/>
    <frame tileid="657" duration="150"/>
    <frame tileid="665" duration="150"/>
    <frame tileid="673" duration="150"/>
    <frame tileid="681" duration="150"/>
    <frame tileid="689" duration="150"/>
    <frame tileid="697" duration="150"/>
    <frame tileid="705" duration="150"/>
    <frame tileid="713" duration="150"/>
    <frame tileid="721" duration="150"/>
    <frame tileid="729" duration="150"/>
    <frame tileid="737" duration="150"/>
    <frame tileid="745" duration="150"/>
    <frame tileid="753" duration="150"/>
    <frame tileid="761" duration="150"/>
    <frame tileid="769" duration="150"/>
    <frame tileid="777" duration="150"/>
    <frame tileid="785" duration="150"/>
    <frame tileid="793" duration="150"/>
   </animation>
  </tile>
  <tile id="642">
   <animation>
    <frame tileid="642" duration="150"/>
    <frame tileid="650" duration="150"/>
    <frame tileid="658" duration="150"/>
    <frame tileid="666" duration="150"/>
    <frame tileid="674" duration="150"/>
    <frame tileid="682" duration="150"/>
    <frame tileid="690" duration="150"/>
    <frame tileid="698" duration="150"/>
    <frame tileid="706" duration="150"/>
    <frame tileid="714" duration="150"/>
    <frame tileid="722" duration="150"/>
    <frame tileid="730" duration="150"/>
    <frame tileid="738" duration="150"/>
    <frame tileid="746" duration="150"/>
    <frame tileid="754" duration="150"/>
    <frame tileid="762" duration="150"/>
    <frame tileid="770" duration="150"/>
    <frame tileid="778" duration="150"/>
    <frame tileid="794" duration="150"/>
    <frame tileid="786" duration="150"/>
   </animation>
  </tile>
  <tile id="643">
   <animation>
    <frame tileid="643" duration="150"/>
    <frame tileid="651" duration="150"/>
    <frame tileid="659" duration="150"/>
    <frame tileid="667" duration="150"/>
    <frame tileid="675" duration="150"/>
    <frame tileid="683" duration="150"/>
    <frame tileid="691" duration="150"/>
    <frame tileid="699" duration="150"/>
    <frame tileid="707" duration="150"/>
    <frame tileid="715" duration="150"/>
    <frame tileid="723" duration="150"/>
    <frame tileid="731" duration="150"/>
    <frame tileid="739" duration="150"/>
    <frame tileid="747" duration="150"/>
    <frame tileid="755" duration="150"/>
    <frame tileid="763" duration="150"/>
    <frame tileid="771" duration="150"/>
    <frame tileid="779" duration="150"/>
    <frame tileid="787" duration="150"/>
    <frame tileid="795" duration="150"/>
   </animation>
  </tile>
  <tile id="644">
   <animation>
    <frame tileid="644" duration="150"/>
    <frame tileid="652" duration="150"/>
    <frame tileid="660" duration="150"/>
    <frame tileid="668" duration="150"/>
    <frame tileid="676" duration="150"/>
    <frame tileid="684" duration="150"/>
    <frame tileid="692" duration="150"/>
    <frame tileid="700" duration="150"/>
    <frame tileid="708" duration="150"/>
    <frame tileid="716" duration="150"/>
    <frame tileid="724" duration="150"/>
    <frame tileid="732" duration="150"/>
    <frame tileid="740" duration="150"/>
    <frame tileid="748" duration="150"/>
    <frame tileid="756" duration="150"/>
    <frame tileid="764" duration="150"/>
    <frame tileid="772" duration="150"/>
    <frame tileid="780" duration="150"/>
    <frame tileid="788" duration="150"/>
    <frame tileid="796" duration="150"/>
   </animation>
  </tile>
  <tile id="645">
   <animation>
    <frame tileid="645" duration="150"/>
    <frame tileid="653" duration="150"/>
    <frame tileid="661" duration="150"/>
    <frame tileid="669" duration="150"/>
    <frame tileid="677" duration="150"/>
    <frame tileid="685" duration="150"/>
    <frame tileid="693" duration="150"/>
    <frame tileid="701" duration="150"/>
    <frame tileid="709" duration="150"/>
    <frame tileid="717" duration="150"/>
    <frame tileid="725" duration="150"/>
    <frame tileid="733" duration="150"/>
    <frame tileid="741" duration="150"/>
    <frame tileid="749" duration="150"/>
    <frame tileid="757" duration="150"/>
    <frame tileid="765" duration="150"/>
    <frame tileid="773" duration="150"/>
    <frame tileid="781" duration="150"/>
    <frame tileid="789" duration="150"/>
    <frame tileid="797" duration="150"/>
   </animation>
  </tile>
  <tile id="802">
   <animation>
    <frame tileid="802" duration="150"/>
    <frame tileid="810" duration="150"/>
    <frame tileid="818" duration="150"/>
    <frame tileid="826" duration="150"/>
    <frame tileid="834" duration="150"/>
    <frame tileid="842" duration="150"/>
    <frame tileid="850" duration="150"/>
    <frame tileid="858" duration="150"/>
    <frame tileid="866" duration="150"/>
    <frame tileid="874" duration="150"/>
    <frame tileid="882" duration="150"/>
    <frame tileid="890" duration="150"/>
    <frame tileid="898" duration="150"/>
    <frame tileid="906" duration="150"/>
    <frame tileid="914" duration="150"/>
    <frame tileid="922" duration="150"/>
    <frame tileid="930" duration="150"/>
    <frame tileid="938" duration="150"/>
    <frame tileid="946" duration="150"/>
    <frame tileid="954" duration="150"/>
   </animation>
  </tile>
  <tile id="803">
   <animation>
    <frame tileid="803" duration="150"/>
    <frame tileid="811" duration="150"/>
    <frame tileid="819" duration="150"/>
    <frame tileid="827" duration="150"/>
    <frame tileid="835" duration="150"/>
    <frame tileid="843" duration="150"/>
    <frame tileid="851" duration="150"/>
    <frame tileid="859" duration="150"/>
    <frame tileid="867" duration="150"/>
    <frame tileid="875" duration="150"/>
    <frame tileid="883" duration="150"/>
    <frame tileid="891" duration="150"/>
    <frame tileid="899" duration="150"/>
    <frame tileid="907" duration="150"/>
    <frame tileid="915" duration="150"/>
    <frame tileid="923" duration="150"/>
    <frame tileid="931" duration="150"/>
    <frame tileid="939" duration="150"/>
    <frame tileid="947" duration="150"/>
    <frame tileid="955" duration="150"/>
   </animation>
  </tile>
  <tile id="804">
   <animation>
    <frame tileid="804" duration="150"/>
    <frame tileid="812" duration="150"/>
    <frame tileid="820" duration="150"/>
    <frame tileid="828" duration="150"/>
    <frame tileid="836" duration="150"/>
    <frame tileid="844" duration="150"/>
    <frame tileid="852" duration="150"/>
    <frame tileid="860" duration="150"/>
    <frame tileid="868" duration="150"/>
    <frame tileid="876" duration="150"/>
    <frame tileid="884" duration="150"/>
    <frame tileid="892" duration="150"/>
    <frame tileid="900" duration="150"/>
    <frame tileid="908" duration="150"/>
    <frame tileid="916" duration="150"/>
    <frame tileid="924" duration="150"/>
    <frame tileid="932" duration="150"/>
    <frame tileid="940" duration="150"/>
    <frame tileid="948" duration="150"/>
    <frame tileid="956" duration="150"/>
   </animation>
  </tile>
  <tile id="805">
   <animation>
    <frame tileid="805" duration="150"/>
    <frame tileid="813" duration="150"/>
    <frame tileid="821" duration="150"/>
    <frame tileid="829" duration="150"/>
    <frame tileid="837" duration="150"/>
    <frame tileid="845" duration="150"/>
    <frame tileid="853" duration="150"/>
    <frame tileid="861" duration="150"/>
    <frame tileid="869" duration="150"/>
    <frame tileid="877" duration="150"/>
    <frame tileid="885" duration="150"/>
    <frame tileid="893" duration="150"/>
    <frame tileid="901" duration="150"/>
    <frame tileid="909" duration="150"/>
    <frame tileid="917" duration="150"/>
    <frame tileid="925" duration="150"/>
    <frame tileid="933" duration="150"/>
    <frame tileid="941" duration="150"/>
    <frame tileid="949" duration="150"/>
    <frame tileid="957" duration="150"/>
   </animation>
  </tile>
  <tile id="962">
   <animation>
    <frame tileid="962" duration="150"/>
    <frame tileid="970" duration="150"/>
    <frame tileid="978" duration="150"/>
    <frame tileid="986" duration="150"/>
    <frame tileid="994" duration="150"/>
    <frame tileid="1002" duration="150"/>
    <frame tileid="1010" duration="150"/>
    <frame tileid="1018" duration="150"/>
    <frame tileid="1026" duration="150"/>
    <frame tileid="1034" duration="150"/>
    <frame tileid="1042" duration="150"/>
    <frame tileid="1050" duration="150"/>
    <frame tileid="1058" duration="150"/>
    <frame tileid="1066" duration="150"/>
    <frame tileid="1074" duration="150"/>
    <frame tileid="1082" duration="150"/>
    <frame tileid="1090" duration="150"/>
    <frame tileid="1098" duration="150"/>
    <frame tileid="1106" duration="150"/>
    <frame tileid="1114" duration="150"/>
   </animation>
  </tile>
  <tile id="963">
   <animation>
    <frame tileid="963" duration="150"/>
    <frame tileid="971" duration="150"/>
    <frame tileid="979" duration="150"/>
    <frame tileid="987" duration="150"/>
    <frame tileid="995" duration="150"/>
    <frame tileid="1003" duration="150"/>
    <frame tileid="1011" duration="150"/>
    <frame tileid="1019" duration="150"/>
    <frame tileid="1027" duration="150"/>
    <frame tileid="1035" duration="150"/>
    <frame tileid="1043" duration="150"/>
    <frame tileid="1051" duration="150"/>
    <frame tileid="1059" duration="150"/>
    <frame tileid="1067" duration="150"/>
    <frame tileid="1075" duration="150"/>
    <frame tileid="1083" duration="150"/>
    <frame tileid="1091" duration="150"/>
    <frame tileid="1099" duration="150"/>
    <frame tileid="1107" duration="150"/>
    <frame tileid="1115" duration="150"/>
   </animation>
  </tile>
  <tile id="964">
   <animation>
    <frame tileid="964" duration="150"/>
    <frame tileid="972" duration="150"/>
    <frame tileid="980" duration="150"/>
    <frame tileid="988" duration="150"/>
    <frame tileid="996" duration="150"/>
    <frame tileid="1004" duration="150"/>
    <frame tileid="1012" duration="150"/>
    <frame tileid="1020" duration="150"/>
    <frame tileid="1028" duration="150"/>
    <frame tileid="1036" duration="150"/>
    <frame tileid="1044" duration="150"/>
    <frame tileid="1052" duration="150"/>
    <frame tileid="1060" duration="150"/>
    <frame tileid="1068" duration="150"/>
    <frame tileid="1076" duration="150"/>
    <frame tileid="1084" duration="150"/>
    <frame tileid="1092" duration="150"/>
    <frame tileid="1100" duration="150"/>
    <frame tileid="1108" duration="150"/>
    <frame tileid="1116" duration="150"/>
   </animation>
  </tile>
  <tile id="965">
   <animation>
    <frame tileid="965" duration="150"/>
    <frame tileid="973" duration="150"/>
    <frame tileid="981" duration="150"/>
    <frame tileid="989" duration="150"/>
    <frame tileid="997" duration="150"/>
    <frame tileid="1005" duration="150"/>
    <frame tileid="1013" duration="150"/>
    <frame tileid="1021" duration="150"/>
    <frame tileid="1029" duration="150"/>
    <frame tileid="1037" duration="150"/>
    <frame tileid="1045" duration="150"/>
    <frame tileid="1053" duration="150"/>
    <frame tileid="1061" duration="150"/>
    <frame tileid="1069" duration="150"/>
    <frame tileid="1077" duration="150"/>
    <frame tileid="1085" duration="150"/>
    <frame tileid="1093" duration="150"/>
    <frame tileid="1101" duration="150"/>
    <frame tileid="1109" duration="150"/>
    <frame tileid="1117" duration="150"/>
   </animation>
  </tile>
  <tile id="1123">
   <animation>
    <frame tileid="1123" duration="150"/>
    <frame tileid="1131" duration="150"/>
    <frame tileid="1139" duration="150"/>
    <frame tileid="1147" duration="150"/>
    <frame tileid="1155" duration="150"/>
    <frame tileid="1163" duration="150"/>
    <frame tileid="1171" duration="150"/>
    <frame tileid="1179" duration="150"/>
    <frame tileid="1187" duration="150"/>
    <frame tileid="1195" duration="150"/>
    <frame tileid="1203" duration="150"/>
    <frame tileid="1211" duration="150"/>
    <frame tileid="1219" duration="150"/>
    <frame tileid="1227" duration="150"/>
    <frame tileid="1235" duration="150"/>
    <frame tileid="1243" duration="150"/>
    <frame tileid="1251" duration="150"/>
    <frame tileid="1259" duration="150"/>
    <frame tileid="1267" duration="150"/>
    <frame tileid="1275" duration="150"/>
   </animation>
  </tile>
  <tile id="1124">
   <animation>
    <frame tileid="1124" duration="150"/>
    <frame tileid="1132" duration="150"/>
    <frame tileid="1140" duration="150"/>
    <frame tileid="1148" duration="150"/>
    <frame tileid="1156" duration="150"/>
    <frame tileid="1164" duration="150"/>
    <frame tileid="1172" duration="150"/>
    <frame tileid="1180" duration="150"/>
    <frame tileid="1188" duration="150"/>
    <frame tileid="1196" duration="150"/>
    <frame tileid="1204" duration="150"/>
    <frame tileid="1212" duration="150"/>
    <frame tileid="1220" duration="150"/>
    <frame tileid="1228" duration="150"/>
    <frame tileid="1236" duration="150"/>
    <frame tileid="1244" duration="150"/>
    <frame tileid="1252" duration="150"/>
    <frame tileid="1260" duration="150"/>
    <frame tileid="1268" duration="150"/>
    <frame tileid="1276" duration="150"/>
   </animation>
  </tile>
  <tile id="1283">
   <animation>
    <frame tileid="1283" duration="150"/>
    <frame tileid="1291" duration="150"/>
    <frame tileid="1299" duration="150"/>
    <frame tileid="1307" duration="150"/>
    <frame tileid="1315" duration="150"/>
    <frame tileid="1323" duration="150"/>
    <frame tileid="1331" duration="150"/>
    <frame tileid="1339" duration="150"/>
    <frame tileid="1347" duration="150"/>
    <frame tileid="1355" duration="150"/>
    <frame tileid="1363" duration="150"/>
    <frame tileid="1371" duration="150"/>
    <frame tileid="1379" duration="150"/>
    <frame tileid="1387" duration="150"/>
    <frame tileid="1395" duration="150"/>
    <frame tileid="1403" duration="150"/>
    <frame tileid="1411" duration="150"/>
    <frame tileid="1419" duration="150"/>
    <frame tileid="1427" duration="150"/>
    <frame tileid="1435" duration="150"/>
   </animation>
  </tile>
  <tile id="1284">
   <animation>
    <frame tileid="1284" duration="150"/>
    <frame tileid="1292" duration="150"/>
    <frame tileid="1300" duration="150"/>
    <frame tileid="1308" duration="150"/>
    <frame tileid="1316" duration="150"/>
    <frame tileid="1324" duration="150"/>
    <frame tileid="1332" duration="150"/>
    <frame tileid="1340" duration="150"/>
    <frame tileid="1348" duration="150"/>
    <frame tileid="1356" duration="150"/>
    <frame tileid="1364" duration="150"/>
    <frame tileid="1372" duration="150"/>
    <frame tileid="1380" duration="150"/>
    <frame tileid="1388" duration="150"/>
    <frame tileid="1396" duration="150"/>
    <frame tileid="1404" duration="150"/>
    <frame tileid="1412" duration="150"/>
    <frame tileid="1420" duration="150"/>
    <frame tileid="1428" duration="150"/>
    <frame tileid="1436" duration="150"/>
   </animation>
  </tile>
 </tileset>
 <layer id="1" name="floor" width="15" height="11">
  <data encoding="csv">
0,0,0,0,0,0,0,0,0,0,0,0,0,0,0,
0,0,0,0,0,0,0,0,0,0,0,0,0,0,0,
0,0,0,0,0,0,0,0,0,0,0,0,0,0,0,
0,0,0,0,0,0,0,0,0,0,0,0,0,0,0,
0,0,0,0,0,0,0,0,0,0,0,0,0,0,0,
0,0,0,0,0,0,0,0,0,0,0,0,0,0,0,
2221,2221,2221,2221,2221,2221,2221,2221,2221,2221,2221,2221,2221,2221,2221,
2221,2221,2221,2221,2221,2221,2221,2221,2221,2221,2221,2221,2221,2221,2221,
2221,2221,2221,2221,2221,2221,2221,2221,2221,2221,2221,2221,2221,2221,2221,
2221,2221,2221,2221,2221,2221,2221,2221,2221,2221,2221,2221,2221,2221,2221,
2221,2221,2221,2221,2221,2221,2221,2221,2221,2221,2221,2221,2221,2221,2221
</data>
 </layer>
 <layer id="3" name="wall" width="15" height="11">
  <data encoding="csv">
4159,4312,4312,4312,4312,4312,4312,4312,4312,4312,4162,0,0,0,0,
4235,4388,4388,4388,4388,4388,4388,4388,4388,4388,4238,0,0,0,0,
4311,3426,3426,3426,3426,3426,3426,3426,3426,3426,4314,0,0,0,0,
4311,3426,3426,3426,3426,3426,3426,3426,3426,3426,4314,0,0,0,0,
4311,3426,3426,3426,3426,3426,3426,3426,3426,3426,4314,0,0,0,0,
4311,3505,3505,3505,3505,3505,3505,3505,3505,3505,4390,4313,4313,4313,4162,
4311,432,432,432,432,432,432,432,432,432,4466,4389,4389,4389,4238,
4311,0,0,0,0,0,0,0,0,0,9330,0,0,0,4314,
4311,0,0,0,0,0,0,0,0,0,9362,0,0,0,4314,
4311,0,0,0,0,0,0,0,0,0,0,0,0,0,4314,
4311,0,0,0,0,1073756866,1073756866,0,0,0,0,0,0,0,4314
</data>
 </layer>
 <layer id="9" name="ladder" width="15" height="11">
  <data encoding="csv">
0,0,0,14308,14339,14307,0,0,0,0,0,0,0,0,0,
0,0,0,14324,14355,14323,0,0,0,0,0,0,0,0,0,
0,431,432,432,435,435,435,432,432,432,0,0,0,0,0,
0,507,0,0,0,0,0,0,0,0,0,0,0,0,0,
0,507,0,0,0,0,0,0,0,0,0,0,0,0,0,
0,507,0,0,0,0,0,0,0,14999,0,9680,9681,9682,0,
0,507,0,0,0,0,0,0,0,15015,0,9712,9713,9714,0,
0,507,0,0,0,0,0,0,0,15031,0,9744,9745,9746,0,
0,507,0,0,0,0,0,0,0,0,0,9776,9777,9778,0,
0,507,0,0,0,0,0,0,0,0,0,0,9806,0,0,
0,507,0,0,0,0,0,0,0,0,0,0,0,0,0
</data>
 </layer>
 <layer id="7" name="bed" width="15" height="11">
  <data encoding="csv">
0,0,0,0,0,0,0,0,0,0,0,0,0,0,0,
0,0,0,0,0,0,0,13642,0,0,0,0,0,0,0,
0,0,0,0,0,0,0,0,0,0,0,0,0,0,0,
0,0,0,0,0,0,0,0,0,0,0,0,0,0,0,
0,0,0,0,0,0,0,0,0,0,0,0,0,0,0,
0,0,0,0,0,0,0,0,0,0,0,0,0,0,0,
0,0,0,0,0,0,0,0,0,0,0,0,0,0,0,
0,0,0,0,0,0,0,0,0,0,0,0,0,0,0,
0,0,0,0,0,0,0,0,0,0,0,0,0,0,0,
0,0,0,0,0,0,0,0,0,0,0,0,0,0,0,
0,0,0,0,0,0,0,0,0,0,0,0,0,0,0
</data>
 </layer>
 <layer id="5" name="on_floor" width="15" height="11">
  <data encoding="csv">
0,0,0,0,0,0,0,0,0,0,0,0,0,0,0,
0,9613,9614,0,0,0,0,0,9613,9614,0,0,0,0,0,
0,9645,9646,0,0,0,0,0,9645,9646,0,0,0,0,0,
0,0,0,0,9553,9554,9555,0,0,0,0,0,0,0,0,
0,0,0,0,9585,9586,9587,0,0,0,0,0,0,0,0,
0,9331,9332,9333,9334,0,0,9335,9336,0,0,0,0,0,0,
0,9363,9364,9365,9366,9365,9366,9367,9368,0,0,0,0,0,0,
0,0,0,0,0,0,0,0,0,0,0,0,0,0,0,
0,0,0,0,0,0,0,0,0,0,0,0,0,0,0,
0,0,0,0,0,0,0,0,0,0,0,0,0,0,0,
0,0,0,0,0,0,0,0,0,0,0,0,0,0,0
</data>
 </layer>
 <layer id="8" name="misc" width="15" height="11">
  <data encoding="csv">
13847,13848,13849,13851,13851,13851,13848,13851,13850,13851,13852,0,0,0,0,
0,0,0,0,15663,15664,15665,0,0,0,0,0,0,0,0,
0,0,0,0,15679,15680,15681,0,0,0,0,0,0,0,0,
0,0,0,0,0,0,0,0,0,0,0,0,0,0,0,
0,0,0,0,0,0,0,0,0,0,0,0,0,0,0,
0,0,0,0,0,0,0,0,0,0,0,0,0,0,0,
0,0,0,0,0,0,0,0,0,0,0,0,0,0,0,
0,0,0,0,0,0,0,0,0,0,0,0,0,0,0,
0,0,0,0,0,0,0,0,0,0,0,0,0,0,0,
0,0,0,0,0,0,0,0,0,0,0,0,0,0,0,
0,0,0,0,0,0,0,0,0,0,0,0,0,0,0
</data>
 </layer>
 <layer id="18" name="lasers" width="15" height="11">
  <data encoding="csv">
16502,16503,16504,16505,16506,0,2147500154,2147500153,2147500152,2147500151,2147500150,0,0,0,0,
16662,16663,16664,16665,16666,0,2147500314,2147500313,2147500312,2147500311,2147500310,0,0,0,0,
16822,16823,16824,16825,16826,0,2147500474,2147500473,2147500472,2147500471,2147500470,0,0,0,0,
16982,16983,16984,16985,16986,0,2147500634,2147500633,2147500632,2147500631,2147500630,0,0,0,0,
17142,17143,17144,17145,17146,0,2147500794,2147500793,2147500792,2147500791,2147500790,0,0,0,0,
0,0,0,0,0,0,0,0,0,0,0,0,0,0,0,
0,0,0,0,0,0,0,0,0,0,0,0,0,0,0,
0,0,0,0,0,0,0,0,0,0,0,0,0,0,0,
0,0,0,0,0,0,0,0,0,0,0,0,0,0,0,
0,0,0,0,0,0,0,0,0,0,0,0,0,0,0,
0,0,0,0,0,0,0,0,0,0,0,0,0,0,0
</data>
 </layer>
 <layer id="11" name="collision" width="15" height="11">
  <data encoding="csv">
864,864,864,864,864,864,864,864,864,864,864,0,0,0,0,
864,0,0,0,0,0,0,0,0,0,864,0,0,0,0,
864,0,0,0,0,0,0,0,0,0,864,0,0,0,0,
864,0,0,0,0,0,0,0,0,0,864,0,0,0,0,
864,0,0,0,0,0,0,0,0,0,0,0,0,0,0,
864,0,0,0,0,0,0,0,0,0,0,864,864,864,864,
864,0,0,0,0,0,0,0,0,0,0,864,864,864,864,
864,0,0,0,0,0,0,0,0,0,0,0,0,0,864,
864,0,0,0,0,0,0,0,0,0,0,0,0,0,864,
864,0,0,0,0,0,0,0,0,0,0,0,0,0,864,
864,0,0,0,0,0,0,0,0,0,0,0,0,0,864
</data>
 </layer>
 <objectgroup id="12" name="collision">
  <object id="1" name="1" x="32.6667" y="345.333" width="130" height="5.33333"/>
  <object id="2" name="2" x="226" y="345.333" width="222.667" height="5.33333"/>
  <object id="4" name="3" x="129.333" y="108" width="90.6667" height="42.6667"/>
  <object id="5" name="4" x="267.334" y="35.3333" width="39.3333" height="58"/>
  <object id="6" name="5" x="46.6667" y="36.6667" width="38" height="56.6667"/>
  <object id="9" name="6" x="126" y="35.3333" width="96.6666" height="34.6667"/>
  <object id="13" name="7" x="32" y="32" width="287.333" height="26.6667"/>
  <object id="14" name="8" x="320.667" y="127.333" width="30.6667" height="149.333"/>
  <object id="17" name="11" x="354.667" y="162" width="89.3334" height="116"/>
  <object id="20" name="14" x="31.3333" y="187.333" width="254.666" height="25.3333"/>
  <object id="41" x="235" y="137.333" width="39" height="48.5"/>
  <object id="42" x="79.3333" y="136.667" width="37" height="50"/>
 </objectgroup>
 <objectgroup id="14" name="objects">
  <object id="24" name="dj" x="122.667" y="108" width="110" height="51.3334"/>
  <object id="33" name="door_to_apartment" x="159.333" y="347.333" width="68.6667" height="3.33333"/>
  <object id="34" name="player_spawn" x="186.667" y="312.667" width="14.6667" height="12.6667"/>
  <object id="39" name="screen" x="123.333" y="26.6667" width="102" height="49.75"/>
  <object id="43" name="bar" x="367.333" y="260.667" width="64" height="34.6667"/>
  <object id="47" name="connornpc" x="177.417" y="78.5" width="13.6667" height="8"/>
  <object id="49" name="chrisnpc" x="95.3333" y="267.667" width="7.33333" height="5"/>
  <object id="50" name="lastnpc" x="225" y="229.667" width="6.66667" height="5"/>
 </objectgroup>
</map>
