<?xml version="1.0" encoding="UTF-8"?>
<map version="1.10" tiledversion="1.11.2" orientation="orthogonal" renderorder="right-down" width="20" height="13" tilewidth="32" tileheight="32" infinite="0" nextlayerid="19" nextobjectid="40">
 <editorsettings>
  <export target="dacia_apartment.json" format="json"/>
 </editorsettings>
 <tileset firstgid="1" name="generic" tilewidth="32" tileheight="32" tilecount="1248" columns="16">
  <image source="../tilesets/generic.png" width="512" height="2496"/>
 </tileset>
 <tileset firstgid="1249" name="living_room" tilewidth="32" tileheight="32" tilecount="720" columns="16">
  <image source="../tilesets/living_room.png" width="512" height="1440"/>
 </tileset>
 <tileset firstgid="1969" name="bedroom" tilewidth="32" tileheight="32" tilecount="1712" columns="16">
  <image source="../tilesets/bedroom.png" width="512" height="3424"/>
 </tileset>
 <tileset firstgid="3681" name="home_1" tilewidth="32" tileheight="32" tilecount="182" columns="14">
  <image source="../tilesets/home_1.png" width="448" height="428"/>
 </tileset>
 <tileset firstgid="3863" name="grocery" tilewidth="32" tileheight="32" tilecount="1248" columns="16">
  <image source="../tilesets/grocery.png" width="512" height="2496"/>
 </tileset>
 <tileset firstgid="5111" name="kitchen" tilewidth="32" tileheight="32" tilecount="784" columns="16">
  <image source="../tilesets/kitchen.png" width="512" height="1568"/>
 </tileset>
 <tileset firstgid="5895" name="3d_walls" tilewidth="32" tileheight="32" tilecount="1416" columns="24">
  <image source="../tilesets/3d_walls.png" width="768" height="1888"/>
 </tileset>
 <tileset firstgid="7311" name="room_builder" tilewidth="32" tileheight="32" tilecount="8588" columns="76">
  <image source="../tilesets/room_builder.png" width="2432" height="3616"/>
 </tileset>
 <tileset firstgid="15899" name="tv" tilewidth="32" tileheight="32" tilecount="224" columns="16">
  <image source="../tilesets/tv.png" width="512" height="448"/>
 </tileset>
 <tileset firstgid="16123" name="home_2" tilewidth="32" tileheight="32" tilecount="182" columns="14">
  <image source="../tilesets/home_2.png" width="448" height="428"/>
 </tileset>
 <tileset firstgid="16305" name="basement" tilewidth="32" tileheight="32" tilecount="800" columns="16">
  <image source="../tilesets/basement.png" width="512" height="1600"/>
 </tileset>
 <tileset firstgid="17105" name="halloween" tilewidth="32" tileheight="32" tilecount="976" columns="16">
  <image source="../tilesets/halloween.png" width="512" height="1952"/>
 </tileset>
 <layer id="3" name="floor" width="20" height="13">
  <data encoding="csv">
0,3757,3757,3757,3757,0,3757,3746,3757,0,0,3757,3757,3757,0,3716,3716,3716,3716,0,
0,3757,3712,3713,3713,3702,3716,3720,3757,0,0,3757,3712,3716,3702,3718,3718,3718,3757,0,
3737,3737,3712,3713,3713,3713,3713,3713,3757,3757,3757,3757,3712,3713,3713,3713,3713,3713,3757,0,
3739,3739,3726,3727,3727,3757,3757,3757,3739,3739,3739,3739,3726,3757,3757,3757,3757,3757,3757,0,
3737,3737,3740,3743,3757,3757,3757,3757,3739,3739,3739,3739,3740,3757,3757,3757,3757,3757,3763,0,
0,0,3757,3743,3743,3743,3743,3743,3743,3743,3757,3757,3757,3757,3757,3757,3757,3757,3757,0,
0,0,3757,3757,3757,3757,3757,3757,3757,3757,3757,3757,3757,3757,3757,3757,3757,3757,3757,0,
0,0,3757,3757,3757,3757,3757,3757,3757,3757,3757,3757,3757,3757,3757,3757,3757,3757,3757,0,
0,0,3757,3763,3763,3763,3763,3763,3763,3757,3757,3757,3757,3757,3757,3757,3757,3757,3757,0,
0,0,3757,3757,3757,3757,3757,3757,3757,3757,3757,3757,3757,3757,3757,3757,3757,3757,3757,0,
0,0,3757,3757,3757,3757,3757,3757,3757,3757,3757,3757,3757,3757,3757,3757,3757,3757,3757,0,
0,0,3757,3757,3757,3757,3757,3757,3757,3757,3757,3757,3757,3757,3757,3757,3757,3757,3757,0,
0,0,3757,3757,3757,3757,3757,3757,3757,3757,3757,3757,3757,3757,3757,3757,3757,3757,3757,0
</data>
 </layer>
 <layer id="1" name="walls" width="20" height="13">
  <data encoding="csv">
3682,3683,3684,3684,3687,646,3689,3692,3693,0,0,3683,3684,3687,646,3689,3690,3690,3693,0,
3682,3697,3700,3700,3701,662,3703,3704,3707,0,0,3697,3700,3701,662,3703,3704,3704,3707,0,
3710,3711,0,0,0,0,0,0,3735,3690,3690,3711,0,0,0,0,0,0,3735,3693,
3724,3725,0,0,0,0,0,3744,3749,3704,3704,3725,0,0,0,0,0,0,3749,3707,
0,0,0,0,0,0,0,0,0,0,0,0,0,0,0,0,0,0,0,3847,
16208,16208,3767,0,0,0,0,0,0,0,0,0,0,0,0,0,0,0,0,3721,
0,3780,3795,3796,3796,3796,3796,3796,3690,16135,0,0,0,0,0,0,0,0,0,3721,
0,3780,3809,3810,3810,3810,3810,3810,3704,16149,0,0,0,0,0,0,0,0,0,3721,
0,0,3823,0,5255,5256,0,0,0,16163,0,0,0,0,0,0,0,0,0,3721,
0,0,3837,0,5271,5272,0,0,0,6028,0,0,0,0,0,0,0,0,0,3721,
0,0,3781,0,0,0,0,0,0,0,0,0,0,0,0,0,0,0,0,3721,
0,0,3781,0,0,0,0,0,0,0,0,0,0,0,0,0,0,0,0,3721,
0,0,3781,0,0,0,0,0,0,1209,1210,0,0,0,0,0,0,0,0,3721
</data>
 </layer>
 <layer id="5" name="on_walls" width="20" height="13">
  <data encoding="csv">
0,0,0,0,0,0,0,0,0,0,0,0,0,0,0,0,1666,0,0,0,
0,0,0,0,0,0,0,0,0,0,0,0,0,0,0,0,1682,0,0,0,
0,0,0,0,0,0,0,0,0,0,476,0,0,0,0,0,0,0,0,0,
0,0,0,0,0,0,0,0,0,0,492,0,0,0,0,0,0,0,0,0,
0,0,0,0,0,0,0,0,0,0,0,0,0,0,0,0,0,0,0,0,
0,0,0,0,0,0,0,0,0,0,0,0,0,0,0,0,0,0,0,0,
0,0,0,5196,0,0,0,0,0,0,0,0,0,0,0,0,0,0,0,0,
0,0,0,5196,5196,5196,5196,5196,0,0,0,0,356,358,358,358,358,357,0,0,
0,0,0,0,0,0,0,0,0,0,0,0,388,390,390,390,390,389,0,0,
0,0,0,0,0,0,0,0,0,0,0,0,388,390,390,390,390,389,0,0,
0,0,0,0,0,0,0,0,0,0,0,0,372,374,374,374,374,373,0,0,
0,0,0,5787,0,0,0,0,0,0,0,0,0,0,0,0,0,0,0,0,
0,0,0,5804,0,0,0,0,0,0,0,0,0,0,0,0,0,0,0,0
</data>
 </layer>
 <layer id="11" name="on_floor" width="20" height="13">
  <data encoding="csv">
0,0,1261,0,0,0,0,0,0,0,0,0,0,0,0,0,0,904,0,0,
0,0,1277,16354,16355,0,0,0,0,0,0,0,0,0,0,0,0,920,0,0,
0,0,1293,16370,16371,705,706,707,0,0,0,0,0,0,0,0,0,936,0,0,
0,0,0,0,0,721,722,723,0,17609,0,0,0,0,0,0,0,0,0,0,
0,0,0,0,0,0,0,0,0,0,0,0,0,0,0,0,0,0,0,0,
0,0,0,0,0,0,0,0,0,0,0,0,0,1701,1702,1702,1703,1492,1493,0,
0,0,0,0,0,0,0,0,0,0,0,0,0,1717,1718,1718,16344,1508,1509,0,
0,0,0,0,0,0,0,5682,0,0,0,0,0,0,0,0,16360,0,0,0,
0,0,0,0,0,0,0,0,0,0,0,0,0,0,869,870,0,1764,1765,0,
0,0,0,0,0,0,0,0,0,0,0,0,0,0,885,886,0,1780,1781,0,
0,0,0,5756,16619,0,0,0,0,0,0,0,0,0,0,0,0,1796,1797,0,
0,0,0,5755,16635,0,0,0,0,0,0,0,0,4514,4517,4518,4515,0,0,0,
0,0,0,5772,0,0,0,0,0,0,0,0,0,4530,4533,4533,4531,0,0,0
</data>
 </layer>
 <layer id="10" name="next_up" width="20" height="13">
  <data encoding="csv">
0,0,0,0,0,0,0,1453,0,0,0,0,0,0,0,0,0,0,0,0,
0,0,0,18047,18048,0,0,1469,0,0,0,0,0,0,0,0,0,0,0,0,
0,0,0,18063,18064,0,0,1485,0,0,0,0,0,0,0,0,0,0,0,0,
0,0,0,0,0,0,0,0,0,0,0,0,0,0,0,0,0,0,0,0,
0,0,0,0,0,0,0,0,0,0,0,0,0,0,0,0,0,0,1375,0,
0,0,0,0,0,0,0,0,0,0,0,0,0,0,0,0,16317,2147500676,1391,0,
0,0,0,5488,0,0,5689,5690,0,0,0,0,0,0,0,0,16333,0,0,0,
0,0,0,5504,5231,5232,5705,5706,5295,0,0,0,0,0,0,0,0,0,0,0,
0,0,0,5520,5227,5227,5228,5227,5311,0,0,0,0,0,5680,5297,0,0,0,0,
0,0,0,5087,0,0,0,0,0,0,0,0,0,0,0,0,0,0,0,0,
0,0,0,5103,0,0,0,0,0,0,0,0,0,4967,16813,16814,0,0,464,0,
0,0,0,5667,0,0,0,0,0,0,0,0,0,4983,16829,16830,17454,0,480,0,
0,0,0,0,0,0,0,0,0,0,0,0,0,0,0,0,0,0,496,0
</data>
 </layer>
 <layer id="17" name="stuff" width="20" height="13">
  <data encoding="csv">
0,0,0,0,0,0,0,0,0,0,0,0,0,0,0,0,0,0,0,0,
0,0,0,0,0,0,0,0,0,0,0,0,0,0,0,0,0,0,0,0,
0,0,0,0,0,0,0,0,0,0,0,0,0,0,0,0,0,0,0,0,
0,0,0,0,0,0,0,0,0,0,0,0,0,0,0,0,0,0,0,0,
0,0,0,0,0,0,0,0,0,0,0,0,0,0,0,0,0,0,0,0,
0,0,0,0,0,0,0,0,0,0,0,0,0,0,0,0,0,0,0,0,
0,0,0,0,0,0,0,0,0,0,0,0,0,0,0,0,0,0,0,0,
0,0,0,0,0,0,0,0,5702,0,0,0,0,0,0,0,0,0,0,0,
0,0,0,0,0,0,0,0,5718,0,0,0,0,0,0,0,0,0,0,0,
0,0,0,0,0,0,0,0,0,0,0,0,0,0,0,0,0,0,0,0,
0,0,0,0,0,0,0,0,0,0,0,0,0,0,0,0,0,0,0,0,
0,0,0,0,0,0,0,0,0,0,0,0,0,0,0,0,0,0,0,0,
0,0,0,0,0,0,0,0,0,0,0,0,0,0,0,0,0,0,0,0
</data>
 </layer>
 <layer id="18" name="top" width="20" height="13" offsetx="8.66667" offsety="0.666667">
  <data encoding="csv">
0,0,0,0,0,0,0,0,0,0,0,0,2147500609,0,0,0,0,0,0,0,
0,0,0,0,0,0,0,0,0,0,0,0,2147500625,0,0,0,0,0,0,0,
0,0,0,0,0,0,0,0,0,0,0,0,2147500641,0,0,0,0,0,0,0,
0,0,0,0,0,0,0,0,0,0,0,0,0,0,0,0,0,0,0,0,
0,0,0,0,0,0,0,0,0,0,0,0,0,0,0,0,0,0,0,0,
0,0,0,0,0,0,0,0,0,0,0,0,0,0,0,0,0,0,0,0,
0,0,0,0,0,0,0,0,0,0,0,0,0,0,0,0,0,0,0,0,
0,0,0,0,0,0,0,0,0,0,0,0,0,0,0,0,0,0,0,0,
0,0,0,0,0,0,0,0,0,0,0,0,0,0,0,0,0,0,0,0,
0,0,0,0,0,0,0,0,0,0,0,0,0,0,0,0,0,0,0,0,
0,0,0,0,0,0,0,0,0,0,0,0,0,0,0,0,0,0,0,0,
0,0,0,0,0,0,0,0,0,0,0,0,0,0,0,0,0,0,0,0,
0,0,0,0,0,0,0,0,0,0,0,0,0,0,0,0,0,0,0,0
</data>
 </layer>
 <layer id="12" name="collision" width="20" height="13">
  <data encoding="csv">
15996,15996,15996,15996,15996,15996,15996,15996,15996,15996,15996,15996,15996,15996,15996,15996,15996,15996,15996,15996,
15996,15996,15996,15996,15996,0,15996,15996,15996,15996,15996,15996,15996,15996,0,15996,15996,15996,15996,15996,
15996,15996,15996,0,0,0,0,0,15996,15996,15996,15996,0,0,0,0,0,15996,15996,15996,
15996,15996,0,0,0,0,0,0,15996,15996,15996,15996,0,0,0,0,0,0,15996,15996,
0,0,0,0,0,0,0,0,0,0,0,0,0,0,0,0,0,0,0,15996,
15996,15996,15996,0,0,0,0,0,0,0,0,0,0,0,0,0,0,0,0,15996,
15996,15996,15996,15996,15996,15996,15996,15996,15996,15996,0,0,0,0,0,0,0,0,0,15996,
15996,15996,15996,15996,15996,15996,15996,15996,15996,15996,0,0,0,0,0,0,0,0,0,15996,
15996,15996,15996,0,0,0,0,0,0,15996,0,0,0,0,15996,15996,0,0,15996,15996,
15996,15996,15996,15996,0,0,0,0,0,0,0,0,0,0,0,0,0,0,15996,15996,
15996,15996,15996,15996,0,0,0,0,0,0,0,0,0,0,0,0,0,0,15996,15996,
15996,15996,15996,15996,0,0,0,0,0,0,0,0,0,15996,15996,15996,0,0,15996,15996,
15996,15996,15996,15996,0,0,0,0,0,0,0,0,0,15996,15996,15996,15996,0,15996,15996
</data>
 </layer>
 <objectgroup id="14" name="collision_objects">
  <object id="7" name="collision3" x="96" y="256" width="190.667" height="10.6667"/>
  <object id="8" name="collision2" x="128" y="408" width="287.333" height="6.66667"/>
  <object id="9" name="collision1" x="544.667" y="410" width="31.3333" height="5.33333"/>
  <object id="15" name="4" x="449.333" y="286.667" width="60.6667" height="8"/>
  <object id="20" x="428" y="336" width="81.3333" height="16.6667"/>
  <object id="21" x="513.333" y="190.667" width="85.3333" height="10.6667"/>
  <object id="25" x="510" y="362" width="32.6667" height="20.6667"/>
  <object id="28" x="390" y="60.6667" width="36.6667" height="12"/>
  <object id="30" x="104" y="63.3333" width="48" height="21.3333"/>
  <object id="37" x="417.333" y="170.667" width="188" height="22.6667"/>
  <object id="38" x="561.333" y="150" width="42" height="26"/>
  <object id="39" x="289.666" y="288" width="29" height="10"/>
 </objectgroup>
 <objectgroup id="13" name="objects">
  <object id="4" name="spawn_from_bedroom" x="178.666" y="84.6663"/>
  <object id="5" name="door_to_bedroom" x="152.667" y="30" width="45.3334" height="36.6667">
   <properties>
    <property name="spawn_x" type="int" value="225"/>
    <property name="spawn_y" type="int" value="240"/>
    <property name="target_map" value="dacia_bedroom"/>
   </properties>
  </object>
  <object id="12" name="door_to_connor" x="440.667" y="31.3333" width="47.3333" height="34"/>
  <object id="13" name="spawn_from_connor" x="457" y="77.6666" width="14.6667" height="12.6667"/>
  <object id="17" name="spawn_from_bathroom" x="36" y="132" width="10.6667" height="7.33333"/>
  <object id="19" name="door_to_bathroom" x="-19.3333" y="128" width="32" height="30.6667"/>
  <object id="22" name="food" x="258" y="229.333" width="30" height="60"/>
  <object id="24" name="orange" x="96.6667" y="351.333" width="47.3333" height="36.6667"/>
  <object id="27" name="game" x="384.667" y="26.6667" width="50.6667" height="72.6667"/>
  <object id="29" name="soju" x="456" y="230" width="51.3333" height="80.6667"/>
  <object id="31" name="joint" x="110.667" y="60" width="55.3333" height="40.6667"/>
  <object id="35" name="mirror" x="317.333" y="101.333" width="38" height="46"/>
  <object id="36" name="mouse" x="282" y="109.333" width="32" height="38.6667"/>
 </objectgroup>
</map>
