<?xml version="1.0" encoding="UTF-8"?>
<map version="1.10" tiledversion="1.11.2" orientation="orthogonal" renderorder="right-down" width="15" height="11" tilewidth="32" tileheight="32" infinite="0" nextlayerid="41" nextobjectid="51">
 <editorsettings>
  <export target="dacia_bedroom.json" format="json"/>
 </editorsettings>
 <tileset firstgid="1" name="bedroom" tilewidth="32" tileheight="32" tilecount="1712" columns="16">
  <image source="../tilesets/bedroom.png" width="512" height="3424"/>
 </tileset>
 <tileset firstgid="1713" name="generic" tilewidth="32" tileheight="32" tilecount="1248" columns="16">
  <image source="../tilesets/generic.png" width="512" height="2496"/>
 </tileset>
 <tileset firstgid="2961" name="art" tilewidth="32" tileheight="32" tilecount="112" columns="16">
  <image source="../tilesets/art.png" width="512" height="224"/>
 </tileset>
 <tileset firstgid="3073" name="room_builder" tilewidth="32" tileheight="32" tilecount="8588" columns="76">
  <image source="../tilesets/room_builder.png" width="2432" height="3616"/>
 </tileset>
 <tileset firstgid="11661" name="floors" tilewidth="32" tileheight="32" tilecount="600" columns="15">
  <image source="../tilesets/floors.png" width="480" height="1280"/>
 </tileset>
 <tileset firstgid="12261" name="classroom" tilewidth="32" tileheight="32" tilecount="544" columns="16">
  <image source="../tilesets/classroom.png" width="512" height="1088"/>
 </tileset>
 <tileset firstgid="12805" name="living_room" tilewidth="32" tileheight="32" tilecount="720" columns="16">
  <image source="../tilesets/living_room.png" width="512" height="1440"/>
 </tileset>
 <tileset firstgid="13525" name="christmas" tilewidth="32" tileheight="32" tilecount="272" columns="16">
  <image source="../tilesets/christmas.png" width="512" height="544"/>
 </tileset>
 <tileset firstgid="13797" name="museum" tilewidth="32" tileheight="32" tilecount="1952" columns="16">
  <image source="../tilesets/museum.png" width="512" height="3904"/>
 </tileset>
 <tileset firstgid="15749" name="basement" tilewidth="32" tileheight="32" tilecount="800" columns="16">
  <image source="../tilesets/basement.png" width="512" height="1600"/>
 </tileset>
 <tileset firstgid="16549" name="grocery" tilewidth="32" tileheight="32" tilecount="1248" columns="16">
  <image source="../tilesets/grocery.png" width="512" height="2496"/>
 </tileset>
 <tileset firstgid="17797" name="halloween" tilewidth="32" tileheight="32" tilecount="976" columns="16">
  <image source="../tilesets/halloween.png" width="512" height="1952"/>
 </tileset>
 <tileset firstgid="18773" name="gym" tilewidth="32" tileheight="32" tilecount="528" columns="16">
  <image source="../tilesets/gym.png" width="512" height="1056"/>
 </tileset>
 <tileset firstgid="19301" name="japan" tilewidth="32" tileheight="32" tilecount="512" columns="16">
  <image source="../tilesets/japan.png" width="512" height="1024"/>
 </tileset>
 <tileset firstgid="19813" name="bathroom" tilewidth="32" tileheight="32" tilecount="896" columns="16">
  <image source="../tilesets/bathroom.png" width="512" height="1792"/>
 </tileset>
 <layer id="17" name="floor" width="15" height="11">
  <data encoding="csv">
0,0,0,0,0,0,0,0,0,0,0,0,0,0,0,
0,0,0,0,0,0,0,0,0,0,0,0,0,0,0,
0,5293,5293,5293,5293,5293,5293,5293,5293,5293,5293,5293,5293,5293,0,
0,5293,5293,5293,5293,5293,5293,5293,5293,5293,5293,5293,5293,5293,0,
0,5293,5293,5293,5293,5293,5293,5293,5293,5293,5293,5293,5293,5293,0,
0,5293,5293,5293,5293,5293,5293,5293,5293,5293,5293,5293,5293,5293,0,
0,5293,5293,5293,5293,5293,5293,5293,5293,5293,5293,5293,5293,5293,0,
0,5293,5293,5293,5293,5293,5293,5293,5293,5293,5293,5293,5293,5293,0,
0,0,0,0,0,5293,5293,5293,5293,5293,5293,5293,5293,5293,0,
0,0,0,0,0,5293,5293,5293,5293,5293,5293,5293,5293,5293,0,
0,0,0,0,0,5293,5293,5293,5293,5293,5293,5293,5293,5293,0
</data>
 </layer>
 <layer id="37" name="shadows" width="15" height="11">
  <data encoding="csv">
0,0,0,0,0,0,0,0,0,0,0,0,0,0,0,
0,0,0,0,0,0,0,0,0,0,0,0,0,0,0,
0,3506,3507,3507,3507,3507,3507,3507,3507,3507,3507,3507,3507,3507,0,
0,3582,0,0,0,0,0,0,0,0,0,0,0,0,0,
0,3582,0,0,0,0,0,0,0,0,0,0,0,0,0,
0,3582,0,0,0,0,0,0,0,0,0,0,0,0,0,
0,3582,0,0,0,0,0,0,0,0,0,0,0,0,0,
0,3582,0,0,0,0,0,0,0,0,0,0,0,0,0,
0,0,0,0,0,0,0,0,0,0,0,0,0,0,0,
0,0,0,0,0,0,0,0,0,0,0,0,0,0,0,
0,0,0,0,0,0,0,0,0,0,0,0,0,0,0
</data>
 </layer>
 <layer id="18" name="walls" width="15" height="11">
  <data encoding="csv">
9891,10120,10120,10120,10120,10120,10120,10120,10120,10120,10120,10120,10120,10120,9970,
10043,10197,10197,10197,10197,10197,10197,10197,10197,10197,10197,10197,10197,10197,10046,
10119,0,0,0,0,0,0,0,0,0,0,0,0,0,10122,
10119,0,0,0,0,0,0,0,0,0,0,0,0,0,10122,
10119,0,0,0,0,0,0,0,0,0,0,0,0,0,10122,
10119,0,0,0,0,0,0,0,0,0,0,0,0,0,10122,
10119,0,0,0,0,0,0,0,0,0,0,0,0,0,10122,
10119,0,0,0,0,0,0,0,0,0,0,0,0,0,10122,
10347,10348,10348,10348,10348,10270,0,0,0,0,0,0,0,0,10122,
0,0,0,0,0,10119,0,0,0,0,0,0,0,0,10122,
0,0,0,0,0,10119,0,1073753490,1073753490,0,0,0,0,0,10122
</data>
 </layer>
 <layer id="34" name="touches" width="15" height="11">
  <data encoding="csv">
0,0,0,0,0,0,0,0,0,0,0,0,0,0,0,
0,0,0,0,0,0,0,0,0,0,0,0,0,0,0,
0,0,0,0,1234,1235,0,0,0,0,0,0,0,0,0,
0,0,0,0,0,0,0,0,0,0,0,0,0,0,0,
0,0,0,0,0,0,0,0,0,0,0,0,2147501645,0,0,
0,0,0,0,0,0,0,0,0,0,0,17997,2147501644,18130,0,
0,0,0,0,0,0,0,0,0,0,0,0,0,0,0,
0,0,0,0,0,0,0,0,0,0,0,0,0,0,0,
0,0,0,0,0,0,0,0,0,0,2417,2418,2419,0,0,
0,0,0,0,0,0,0,0,0,0,2433,2434,2435,0,0,
0,0,0,0,0,0,0,0,0,0,0,0,0,0,0
</data>
 </layer>
 <layer id="20" name="on_floor" width="15" height="11">
  <data encoding="csv">
0,0,0,1204,1205,1206,1275,1276,14380,0,0,0,12821,12822,0,
0,0,0,1220,1221,1222,1291,1292,14396,0,0,12809,12837,12838,0,
0,2147502685,2147502684,2068,2070,2070,2070,2070,2069,0,0,12825,12853,12854,0,
0,2147502701,2147502700,2100,2102,2102,2102,2102,2101,0,0,18112,18113,0,0,
0,0,0,2100,2102,2102,2102,2102,2101,0,18092,18128,18129,0,0,
0,0,0,2100,2102,2102,2102,2102,2101,0,18108,18144,18145,0,0,
0,0,0,2084,2086,2086,2086,2086,2085,0,0,0,0,0,0,
0,0,0,0,0,0,0,0,0,0,0,0,0,0,0,
0,0,0,0,0,0,0,0,0,0,2417,2418,2419,0,0,
0,0,0,0,0,0,0,0,0,0,2433,2434,2435,0,0,
0,0,0,0,0,0,0,0,0,0,0,0,0,0,0
</data>
 </layer>
 <layer id="32" name="on_rugs" width="15" height="11">
  <data encoding="csv">
0,0,0,0,0,0,0,0,0,0,0,0,0,0,0,
0,12807,12808,0,0,0,983,984,0,0,0,0,0,0,0,
0,12823,12824,1357,1358,1359,1009,1010,0,0,0,0,0,0,0,
0,0,0,1373,1374,1375,0,0,0,0,0,0,0,0,0,
0,0,0,0,0,0,0,0,0,0,0,0,0,14603,0,
0,0,0,0,0,0,0,0,0,0,0,0,0,0,0,
0,0,0,0,0,0,0,0,0,0,0,0,0,0,0,
0,0,0,0,0,0,0,0,0,0,0,12828,12829,12830,0,
0,0,0,0,0,0,0,0,0,0,12810,12844,12845,12846,0,
0,0,0,0,0,0,0,0,0,0,0,12860,12861,12862,0,
0,0,0,0,0,0,0,0,0,0,0,0,0,0,0
</data>
 </layer>
 <layer id="36" name="desk" width="15" height="11">
  <data encoding="csv">
0,0,0,0,0,0,0,0,0,0,0,0,0,0,0,
0,0,0,0,0,3005,0,0,0,0,0,0,0,0,0,
0,0,0,0,0,3021,0,0,0,0,0,0,0,0,0,
0,0,0,0,18339,18340,0,0,0,0,0,0,0,0,0,
0,0,0,0,18355,18356,0,0,0,0,0,0,0,0,0,
0,0,0,0,0,0,0,0,0,0,0,0,0,0,0,
0,0,0,0,0,0,0,0,0,0,0,0,0,0,0,
0,0,0,0,0,0,0,0,0,0,0,0,0,0,0,
0,0,0,0,0,0,0,0,0,0,0,0,0,0,0,
0,0,0,0,0,0,0,0,0,0,0,0,0,0,0,
0,0,0,0,0,0,0,0,0,0,0,0,0,0,0
</data>
 </layer>
 <layer id="26" name="on_tables" width="15" height="11">
  <data encoding="csv">
0,12422,12423,0,0,0,0,0,0,0,0,0,0,0,0,
0,12438,12439,0,0,0,0,0,0,0,0,19298,0,0,0,
0,0,0,0,0,0,0,0,0,0,0,0,0,0,0,
0,0,0,0,0,0,0,0,0,0,0,0,0,0,0,
0,0,0,0,0,0,16625,16626,0,0,0,0,0,0,0,
0,0,0,0,0,0,16641,16642,0,0,0,0,0,0,0,
0,0,0,0,0,0,0,0,0,0,0,0,0,0,0,
0,0,0,0,0,0,0,0,0,0,0,0,0,0,0,
0,0,0,0,0,0,0,0,0,0,0,0,17682,0,0,
0,0,0,0,0,0,0,0,0,0,0,0,0,0,0,
0,0,0,0,0,0,0,0,0,0,0,0,0,0,0
</data>
 </layer>
 <layer id="19" name="on_walls" width="15" height="11">
  <data encoding="csv">
0,0,0,0,0,0,0,0,0,12873,12874,0,0,0,0,
0,0,0,0,0,0,0,0,0,12889,12890,0,0,0,0,
0,0,0,0,0,1237,1003,1004,0,12905,12906,0,0,0,0,
0,0,0,0,0,0,1019,1020,0,0,0,0,0,0,0,
0,0,0,0,0,0,0,0,0,0,0,0,0,0,0,
0,0,0,0,0,0,0,0,0,0,0,0,0,0,0,
0,0,0,0,0,0,0,0,0,0,0,0,0,0,0,
0,0,0,0,0,0,0,0,0,0,0,2147496078,0,0,0,
0,0,0,0,0,0,0,0,0,0,0,2147496094,0,0,0,
0,0,0,0,0,0,0,0,0,0,0,0,0,0,0,
0,0,0,0,0,0,0,0,0,0,0,0,0,0,0
</data>
 </layer>
 <layer id="23" name="top" width="15" height="11">
  <data encoding="csv">
0,0,0,0,0,0,0,0,0,0,0,0,0,0,0,
0,0,0,0,0,0,0,0,0,0,0,0,0,0,0,
0,0,0,0,0,0,0,0,0,0,2019,0,0,0,0,
0,0,0,0,0,0,16257,16258,0,0,0,0,0,0,0,
0,0,0,0,0,0,16273,16274,0,0,0,0,0,0,0,
0,0,0,0,0,0,0,0,0,0,0,0,0,0,0,
0,0,0,0,0,0,0,0,0,0,0,0,0,0,0,
0,0,0,0,0,0,0,0,0,0,0,0,0,0,0,
0,0,0,0,0,0,0,0,0,0,0,0,0,0,0,
0,0,0,0,0,0,0,0,0,0,0,0,0,0,0,
0,0,0,0,0,0,0,0,0,0,0,0,0,0,0
</data>
 </layer>
 <layer id="27" name="collision" width="15" height="11">
  <data encoding="csv">
11797,11797,11797,11797,11797,11797,11797,11797,11797,11797,11797,11797,11797,11797,11797,
11797,11797,11797,11797,11797,11797,11797,11797,11797,11797,11797,11797,11797,11797,11797,
11797,0,0,0,0,0,0,0,0,0,0,0,0,0,11797,
11797,0,0,0,0,0,0,0,0,0,0,0,0,0,11797,
11797,0,0,0,0,0,11797,11797,0,0,0,0,0,0,11797,
11797,0,0,0,0,0,11797,11797,0,0,0,0,0,0,11797,
11797,0,0,0,0,0,0,0,0,0,0,0,0,0,11797,
11797,0,0,0,0,0,0,0,0,0,0,0,0,0,11797,
11797,11797,11797,11797,11797,11797,0,0,0,0,0,0,0,0,11797,
11797,11797,11797,11797,11797,11797,0,0,0,0,0,0,0,0,11797,
11797,11797,11797,11797,11797,11797,0,0,0,0,0,0,0,0,11797
</data>
 </layer>
 <layer id="40" name="laundry" width="15" height="11">
  <data encoding="csv">
0,0,0,0,0,0,0,0,0,0,0,0,0,0,0,
0,0,0,0,0,0,0,0,0,0,0,0,0,0,0,
0,0,0,0,0,0,0,0,0,0,0,0,0,0,0,
0,0,0,0,0,0,0,0,0,0,0,0,0,0,0,
0,0,0,0,0,0,0,0,0,0,0,0,0,0,0,
0,0,0,0,0,0,0,0,0,0,0,0,0,0,0,
0,0,0,0,0,0,0,0,0,0,0,0,0,20357,0,
0,0,0,0,0,0,0,0,0,0,0,0,0,20373,0,
0,0,0,0,0,0,0,0,0,0,0,0,0,0,0,
0,0,0,0,0,0,0,0,0,0,0,0,0,0,0,
0,0,0,0,0,0,0,0,0,0,0,0,0,0,0
</data>
 </layer>
 <layer id="39" name="to_dacia" width="15" height="11">
  <data encoding="csv">
0,0,0,0,0,0,0,0,0,0,0,0,0,0,0,
0,0,0,0,0,0,0,0,0,0,0,0,0,0,0,
0,0,0,0,0,0,0,0,0,0,0,0,0,0,0,
0,0,0,0,0,0,0,0,0,0,0,0,0,0,0,
0,0,0,0,0,0,0,0,0,0,0,0,0,0,0,
0,0,0,0,0,0,0,0,0,0,0,0,0,0,0,
0,0,0,0,0,0,0,0,0,0,0,0,0,0,0,
0,0,0,0,0,0,0,0,0,0,0,0,0,0,0,
0,0,0,0,0,0,0,0,0,0,0,0,19430,0,0,
0,0,0,0,0,0,0,0,0,0,0,0,0,0,0,
0,0,0,0,0,0,0,0,0,0,0,0,0,0,0
</data>
 </layer>
 <objectgroup id="28" name="objects">
  <object id="1" name="player_spawn" x="256.667" y="311.667"/>
  <object id="3" name="door_to_apartment" x="225.333" y="346.667" width="62.6667" height="5.33337">
   <properties>
    <property name="spawn_x" type="int" value="165"/>
    <property name="spawn_y" type="int" value="55"/>
    <property name="target_map" value="dacia_apartment"/>
   </properties>
  </object>
  <object id="6" name="computer" x="31" y="19.3333" width="64.3334" height="76.6666">
   <properties>
    <property name="type" value="message_computer"/>
   </properties>
  </object>
  <object id="9" name="table_note" x="344.666" y="241.333" width="30.5001" height="38.6667">
   <properties>
    <property name="note_id" value="bedroom_letter_1.txt"/>
    <property name="type" value="readable_note"/>
   </properties>
  </object>
  <object id="14" name="spellbook" x="314.667" y="122" width="38" height="50"/>
  <object id="15" name="radio" x="344.667" y="41.3333" width="40.1667" height="53.6667"/>
  <object id="18" name="kitty" x="134.333" y="92.9997" width="50" height="66"/>
  <object id="35" name="wardrobe" x="395" y="31.5" width="45" height="63.5"/>
  <object id="39" name="to_dacia_zone" x="380" y="234.833" width="26.8333" height="45"/>
  <object id="40" name="bed_spawn" x="223.333" y="77.3334" width="14" height="12.6667"/>
  <object id="44" name="laundry" x="413" y="199.167" width="33.5" height="43.3333"/>
  <object id="50" name="spellzone" x="359.5" y="147" width="47.5" height="41"/>
 </objectgroup>
 <objectgroup id="31" name="collision_objects" visible="0">
  <object id="11" name="collision1" x="289.333" y="346" width="159.333" height="4.66667"/>
  <object id="12" name="collision2" x="352" y="120.666" width="13.3334" height="22"/>
  <object id="13" name="collision3" x="289.333" y="63.3333" width="158" height="9.33337"/>
  <object id="16" name="collision4" x="144.667" y="96" width="30.6667" height="44"/>
  <object id="19" name="collision5" x="402.667" y="120.667" width="13.3334" height="22"/>
  <object id="24" name="collision9" x="32.6667" y="63.3333" width="64" height="8.3333"/>
  <object id="27" name="collision12" x="363.333" y="244.667" width="74.3334" height="58"/>
  <object id="31" x="425" y="130" width="20.3333" height="11.6667"/>
  <object id="32" x="324.333" y="128" width="23.3333" height="24.3333"/>
  <object id="36" x="191" y="344" width="35.5" height="7.5"/>
  <object id="45" name="bin" x="416" y="208.333" width="30.3333" height="18"/>
  <object id="47" x="196" y="112" width="56.5" height="16"/>
  <object id="48" x="161" y="62.5" width="30.5" height="13.5"/>
 </objectgroup>
</map>
