<?xml version="1.0" encoding="UTF-8"?>
<map version="1.10" tiledversion="1.11.2" orientation="orthogonal" renderorder="right-down" width="15" height="11" tilewidth="32" tileheight="32" infinite="0" nextlayerid="12" nextobjectid="19">
 <editorsettings>
  <export target="dacia_bathroom.json" format="json"/>
 </editorsettings>
 <tileset firstgid="1" name="bathroom" tilewidth="32" tileheight="32" tilecount="896" columns="16">
  <image source="../tilesets/bathroom.png" width="512" height="1792"/>
 </tileset>
 <tileset firstgid="897" name="room_builder" tilewidth="32" tileheight="32" tilecount="8588" columns="76">
  <image source="../tilesets/room_builder.png" width="2432" height="3616"/>
 </tileset>
 <tileset firstgid="9485" name="museum" tilewidth="32" tileheight="32" tilecount="1952" columns="16">
  <image source="../tilesets/museum.png" width="512" height="3904"/>
 </tileset>
 <tileset firstgid="11437" name="japan" tilewidth="32" tileheight="32" tilecount="512" columns="16">
  <image source="../tilesets/japan.png" width="512" height="1024"/>
 </tileset>
 <tileset firstgid="11949" name="hospital" tilewidth="32" tileheight="32" tilecount="1760" columns="16">
  <image source="../tilesets/hospital.png" width="512" height="3520"/>
 </tileset>
 <tileset firstgid="13709" name="grocery" tilewidth="32" tileheight="32" tilecount="1248" columns="16">
  <image source="../tilesets/grocery.png" width="512" height="2496"/>
 </tileset>
 <layer id="1" name="floor" width="15" height="11">
  <data encoding="csv">
0,0,0,0,0,0,0,0,0,0,0,0,0,0,0,
0,0,0,0,0,0,0,0,0,0,0,0,0,0,0,
0,0,3528,3528,3528,3528,3528,3528,3528,3528,3528,3528,0,0,0,
0,0,3528,3528,3528,3528,3528,3528,3528,3528,3528,3528,0,0,0,
0,0,3528,3451,3452,3452,3452,3452,3452,3452,3452,3528,0,0,0,
0,0,3528,3527,3528,3528,3528,3528,3528,3528,3528,3528,3528,3528,3528,
0,0,3528,3527,3528,3528,3528,3528,3528,3528,3528,3528,3528,3528,3528,
0,0,3528,3527,3528,3528,3528,3528,3528,3528,3528,3452,3452,3452,3452,
0,0,3528,3527,3528,3528,3528,3528,3528,3528,3528,3528,3528,3528,3528,
0,0,3528,3527,3528,3528,3528,3528,3528,3528,3528,3528,0,0,0,
0,0,0,0,0,0,0,0,0,0,0,0,0,0,0
</data>
 </layer>
 <layer id="2" name="walls" width="15" height="11">
  <data encoding="csv">
0,0,0,0,0,0,0,0,0,0,0,0,0,0,0,
0,0,0,0,0,0,0,0,0,0,0,0,0,0,0,
0,0,6718,6797,6797,6797,6797,6797,6797,6797,6797,6646,0,0,0,
0,0,6719,6872,6873,6873,6873,6873,6873,6873,6873,6722,0,0,0,
0,0,6795,0,0,0,0,0,0,0,0,6798,0,0,0,
0,0,6795,0,0,0,0,0,0,0,0,6874,6797,6797,6797,
0,0,6795,0,0,0,0,0,0,0,0,6950,6873,6873,6873,
0,0,6795,0,0,0,0,0,0,0,0,0,0,0,0,
0,0,6795,0,0,0,0,0,0,0,0,0,0,0,0,
0,0,6795,0,0,0,0,0,0,0,0,6951,7025,7025,7025,
0,0,7023,7024,7024,7024,7024,7024,7024,7024,7024,7026,0,0,0
</data>
 </layer>
 <layer id="6" name="drawing" width="15" height="11">
  <data encoding="csv">
0,0,0,0,0,0,0,0,0,0,0,0,0,0,0,
0,0,0,0,0,0,0,0,0,0,0,0,0,0,0,
0,0,0,13547,0,0,0,0,0,0,0,0,0,0,0,
0,0,0,13563,0,0,0,0,0,0,0,0,0,0,0,
0,0,0,0,0,0,0,0,0,0,0,0,0,0,0,
0,0,0,0,0,0,0,0,0,0,0,0,0,0,0,
0,0,0,0,0,0,0,0,0,0,0,0,0,0,0,
0,0,0,0,0,0,0,0,0,0,0,0,0,0,0,
0,0,0,0,0,0,0,0,0,0,0,0,0,0,0,
0,0,0,0,0,0,0,0,0,0,0,0,0,0,0,
0,0,0,0,0,0,0,0,0,0,0,0,0,0,0
</data>
 </layer>
 <layer id="3" name="stuff" width="15" height="11">
  <data encoding="csv">
0,0,0,0,0,0,0,0,0,0,0,0,0,0,0,
0,0,0,0,0,0,0,0,0,0,0,0,0,0,0,
0,0,0,703,704,0,0,430,11635,374,375,0,0,0,0,
0,0,0,719,720,0,0,446,11651,390,391,0,0,0,0,
0,0,0,735,736,2684355025,2684355009,462,11667,449,450,0,0,0,0,
0,0,0,751,752,2684355026,2684355010,0,0,465,466,0,0,0,0,
0,0,0,0,0,0,0,0,0,0,0,0,0,0,0,
0,0,0,0,0,0,0,0,0,0,0,0,0,0,2147485057,
0,0,0,201,0,0,0,0,0,0,0,0,0,0,2147485057,
0,0,0,217,0,0,0,0,0,0,0,0,0,0,0,
0,0,0,0,0,0,0,0,0,0,0,0,0,0,0
</data>
 </layer>
 <layer id="4" name="bathroom" width="15" height="11">
  <data encoding="csv">
0,0,0,0,0,0,0,0,0,0,0,0,0,0,0,
0,0,0,0,0,0,0,0,0,0,0,0,0,0,0,
0,0,0,0,0,0,0,0,0,0,0,0,0,0,0,
0,0,0,0,0,55,678,0,0,104,105,0,0,0,0,
0,0,0,5,6,71,0,0,0,120,121,0,0,0,0,
0,0,0,21,22,23,0,0,0,0,0,0,0,0,0,
0,0,0,37,38,39,0,0,0,0,0,0,0,0,0,
0,0,0,0,0,0,0,0,0,0,0,0,0,0,0,
0,0,0,0,0,0,0,0,0,0,11572,0,0,0,0,
0,0,0,0,0,0,0,0,11587,11555,11588,0,0,0,0,
0,0,0,0,0,0,0,0,0,0,0,0,0,0,0
</data>
 </layer>
 <layer id="11" name="duck" width="15" height="11">
  <data encoding="csv">
0,0,0,0,0,0,0,0,0,0,0,0,0,0,0,
0,0,0,0,0,0,0,0,0,0,0,0,0,0,0,
0,0,0,0,0,0,0,0,0,0,0,0,0,0,0,
0,0,0,0,0,0,0,0,0,0,0,0,0,0,0,
0,0,0,0,0,0,0,0,0,0,0,0,0,0,0,
0,0,0,0,0,0,0,0,0,0,0,0,0,0,0,
0,0,0,0,0,0,0,0,0,0,0,0,0,0,0,
0,0,0,0,0,170,0,0,0,0,0,0,0,0,0,
0,0,0,0,0,0,0,0,0,0,0,0,0,0,0,
0,0,0,0,0,0,0,0,0,0,0,0,0,0,0,
0,0,0,0,0,0,0,0,0,0,0,0,0,0,0
</data>
 </layer>
 <layer id="5" name="top" width="15" height="11">
  <data encoding="csv">
0,0,0,0,0,0,0,0,0,0,0,0,0,0,0,
0,0,0,0,0,0,0,0,0,0,0,0,0,0,0,
0,0,0,0,0,0,649,0,0,0,0,0,0,0,0,
0,0,0,0,0,0,661,0,0,0,0,0,0,0,0,
0,0,0,0,0,0,0,0,0,0,0,0,0,0,0,
0,0,0,10238,10239,10189,10190,0,0,0,0,0,0,0,0,
0,0,0,10254,10255,10205,10206,0,0,0,0,0,0,0,0,
0,0,0,10270,10271,10221,10222,0,0,0,0,0,0,0,0,
0,0,0,0,0,0,0,0,0,0,0,0,0,0,0,
0,0,0,0,0,0,0,0,0,0,0,0,0,0,0,
0,0,0,0,0,0,0,0,0,0,0,0,0,0,0
</data>
 </layer>
 <layer id="10" name="cd" width="15" height="11">
  <data encoding="csv">
0,0,0,0,0,0,0,0,0,0,0,0,0,0,0,
0,0,0,0,0,0,0,0,0,0,0,0,0,0,0,
0,0,0,0,0,0,0,0,0,0,0,0,0,0,0,
0,0,0,0,0,0,0,0,0,0,0,0,0,0,0,
0,0,0,0,0,0,0,0,0,0,0,0,0,0,0,
0,0,0,0,0,0,0,0,0,0,0,0,0,0,0,
0,0,0,0,0,0,0,0,0,0,0,0,0,0,0,
0,0,0,0,0,0,0,0,0,0,0,0,0,0,0,
0,0,0,0,0,0,0,0,0,0,0,0,0,0,0,
0,0,0,0,11566,0,0,0,0,0,0,0,0,0,0,
0,0,0,0,0,0,0,0,0,0,0,0,0,0,0
</data>
 </layer>
 <layer id="7" name="collision" width="15" height="11" visible="0">
  <data encoding="csv">
0,0,0,0,0,0,0,0,0,0,0,0,0,0,0,
0,0,0,0,0,0,0,0,0,0,0,0,0,0,0,
0,0,1760,1760,1760,1760,1760,1760,1760,1760,1760,1760,0,0,0,
0,0,1760,1760,1760,1760,1760,1760,1760,1760,1760,1760,0,0,0,
0,0,1760,1760,1760,0,0,0,0,0,0,1760,0,0,0,
0,0,1760,1760,1760,0,0,0,0,0,0,1760,1760,1760,1760,
0,0,1760,1760,1760,1760,0,0,0,0,0,1760,1760,1760,1760,
0,0,1760,0,0,0,0,0,0,0,0,0,0,0,0,
0,0,1760,0,0,0,0,0,0,0,0,0,0,0,0,
0,0,1760,0,0,0,0,0,0,0,1760,1760,1760,1760,1760,
0,0,1760,1760,1760,1760,1760,1760,1760,1760,1760,1760,0,0,0
</data>
 </layer>
 <objectgroup id="8" name="collision_objects">
  <object id="1" name="1" x="230.5" y="129" width="121.5" height="12"/>
  <object id="2" name="2" x="118" y="223.5" width="85.5" height="13.5"/>
  <object id="3" name="3" x="188" y="185" width="30.5" height="36"/>
  <object id="4" name="4" x="257.5" y="293" width="29.5" height="27.5"/>
  <object id="5" name="5" x="286.5" y="302.5" width="32" height="18"/>
  <object id="6" name="6" x="321" y="282" width="27.5" height="5.5"/>
  <object id="7" name="7" x="97.5" y="263.5" width="29.5" height="27.5"/>
  <object id="8" name="8" x="134" y="289" width="21" height="16.5"/>
  <object id="9" name="9" x="172.5" y="127" width="7" height="27"/>
  <object id="10" name="10" x="159" y="150" width="28.5" height="42"/>
 </objectgroup>
 <objectgroup id="9" name="objects">
  <object id="11" name="edm_cd" x="128.5" y="277.5" width="42.5" height="38"/>
  <object id="12" name="duck" x="157.5" y="224.5" width="35.5" height="27"/>
  <object id="14" name="door_to_apartment" x="464" y="223" width="16" height="65"/>
  <object id="15" name="player_spawn" x="422" y="247" width="19" height="18.5"/>
  <object id="17" name="sink" x="292" y="107.333" width="58.6667" height="56.6667"/>
  <object id="18" name="toilet" x="224" y="127.333" width="32.6667" height="34"/>
 </objectgroup>
</map>
