<?xml version="1.0" encoding="UTF-8"?>
<map version="1.10" tiledversion="1.11.2" orientation="orthogonal" renderorder="right-down" width="40" height="11" tilewidth="32" tileheight="32" infinite="0" nextlayerid="11" nextobjectid="13">
 <editorsettings>
  <export target="laundry.json" format="json"/>
 </editorsettings>
 <tileset firstgid="1" name="room_builder" tilewidth="32" tileheight="32" tilecount="8588" columns="76">
  <image source="../tilesets/room_builder.png" width="2432" height="3616"/>
 </tileset>
 <tileset firstgid="8589" name="terrain" tilewidth="32" tileheight="32" tilecount="2368" columns="32">
  <image source="../tilesets/terrain.png" width="1024" height="2368"/>
 </tileset>
 <tileset firstgid="10957" name="graveyard" tilewidth="32" tileheight="32" tilecount="1280" columns="32">
  <image source="../tilesets/graveyard.png" width="1024" height="1280"/>
 </tileset>
 <tileset firstgid="12237" name="bathroom" tilewidth="32" tileheight="32" tilecount="896" columns="16">
  <image source="../tilesets/bathroom.png" width="512" height="1792"/>
 </tileset>
 <tileset firstgid="13133" name="bedroom" tilewidth="32" tileheight="32" tilecount="1712" columns="16">
  <image source="../tilesets/bedroom.png" width="512" height="3424"/>
 </tileset>
 <layer id="4" name="subfloor" width="40" height="11">
  <data encoding="csv">
0,0,0,0,0,0,0,0,0,0,0,0,0,0,0,0,0,0,0,0,0,0,0,0,0,0,0,0,0,0,0,0,0,0,0,0,0,0,0,0,
0,0,0,0,0,2025,2025,2025,2025,2025,2025,2025,2025,2025,0,0,0,0,0,0,0,0,0,0,0,0,0,0,0,0,0,0,0,0,0,0,0,0,0,0,
0,0,0,0,0,2025,2025,2025,2025,2025,2025,2025,2025,2025,0,0,0,0,0,0,0,0,0,0,0,0,0,0,0,0,0,0,0,0,0,0,0,0,0,0,
0,0,0,0,0,2025,2025,2025,2025,2025,2025,2025,2025,2025,0,0,0,0,0,0,0,0,0,0,0,0,0,0,0,0,0,0,0,0,0,0,0,0,0,0,
0,0,0,0,0,2025,2025,2025,2025,2025,2025,2025,2025,2025,0,0,0,0,0,0,0,0,0,0,0,0,0,0,0,0,0,0,0,0,0,0,0,0,0,0,
0,0,0,0,0,2025,2025,2025,2025,2025,2025,2025,2025,2025,0,0,0,0,0,0,0,0,0,0,0,0,0,0,0,0,0,0,0,0,0,0,0,0,0,0,
0,0,0,0,0,2025,2025,2025,2025,2025,2025,2025,2025,2025,2025,2025,2025,2025,2025,2025,2025,2025,2025,2025,2025,2025,2025,2025,2025,2025,2025,2025,2025,2025,2025,2025,2025,2025,2025,2025,
0,0,0,0,0,2025,2025,2025,2025,2025,2025,2025,2025,2025,2025,2025,2025,2025,2025,2025,2025,2025,2025,2025,2025,2025,2025,2025,2025,2025,2025,2025,2025,2025,2025,2025,2025,2025,2025,2025,
0,0,0,0,0,2025,2025,2025,2025,2025,2025,2025,2025,2025,2025,2025,2025,2025,2025,2025,2025,2025,2025,2025,2025,2025,2025,2025,2025,2025,2025,2025,2025,2025,2025,2025,2025,2025,2025,2025,
0,0,0,0,0,2025,2025,2025,2025,2025,2025,2025,2025,2025,2025,2025,2025,2025,2025,2025,2025,2025,2025,2025,2025,2025,2025,2025,2025,2025,2025,2025,2025,2025,2025,2025,2025,2025,2025,2025,
0,0,0,0,0,0,0,0,0,0,0,0,0,0,0,0,0,0,0,0,0,0,0,0,0,0,0,0,0,0,0,0,0,0,0,0,0,0,0,0
</data>
 </layer>
 <layer id="2" name="floor" width="40" height="11">
  <data encoding="csv">
0,0,0,0,0,0,0,0,0,0,0,0,0,0,0,0,0,0,0,0,0,0,0,0,0,0,0,0,0,0,0,0,0,0,0,0,0,0,0,0,
0,0,0,0,0,9985,9985,9985,9985,9985,9985,9985,9985,9985,0,0,0,0,0,0,0,0,0,0,0,0,0,0,0,0,0,0,0,0,0,0,0,0,0,0,
0,0,0,0,0,9985,9985,9985,9985,9985,9985,9985,9985,9985,0,0,0,0,0,0,0,0,0,0,0,0,0,0,0,0,0,0,0,0,0,0,0,0,0,0,
0,0,0,0,0,9985,9952,9953,9953,9953,9953,9953,9954,9985,0,0,0,0,0,0,0,0,0,0,0,0,0,0,0,0,0,0,0,0,0,0,0,0,0,0,
0,0,0,0,0,9985,9984,9985,9985,9985,9985,9985,9986,9985,0,0,0,0,0,0,0,0,0,0,0,0,0,0,0,0,0,0,0,0,0,0,0,0,0,0,
0,0,0,0,0,9985,9984,9985,9985,9985,9985,9985,9986,9985,0,0,0,0,0,0,0,0,0,0,0,0,0,0,0,0,0,0,0,0,0,0,0,0,0,0,
0,0,0,0,0,9985,9984,9985,9985,9985,9985,9985,9986,9985,9985,9985,9985,9985,9985,9985,9985,9985,9985,9985,9985,9985,9985,9985,9985,9985,9985,9985,9985,9985,9985,9985,9985,9985,9985,9985,
0,0,0,0,0,9985,9984,9985,9985,9985,9985,9985,9986,9985,9985,9985,9985,9985,9985,9985,9985,9985,9985,9985,9985,9985,9985,9985,9985,9985,9985,9985,9985,9985,9985,9985,9985,9985,9985,9985,
0,0,0,0,0,9985,9984,9985,9985,9985,9985,9985,9985,9953,9953,9953,9953,9953,9953,9953,9953,9953,9953,9953,9953,9953,9953,9953,9953,9953,9953,9953,9953,9953,9953,9953,9953,9953,9953,9953,
0,0,0,0,0,9985,10016,10017,10017,10017,10017,10017,10017,10017,10017,10017,10017,10017,10017,10017,10017,10017,10017,10017,10017,10017,10017,10017,10017,10017,10017,10017,10017,10017,10017,10017,10017,10017,10017,10017,
0,0,0,0,0,0,0,0,0,0,0,0,0,0,0,0,0,0,0,0,0,0,0,0,0,0,0,0,0,0,0,0,0,0,0,0,0,0,0,0
</data>
 </layer>
 <layer id="1" name="walls" width="40" height="11">
  <data encoding="csv">
0,0,0,0,0,0,0,0,0,0,0,0,0,0,0,0,0,0,0,0,0,0,0,0,0,0,0,0,0,0,0,0,0,0,0,0,0,0,0,0,
0,0,0,0,0,6287,6441,6441,6441,6441,6441,6441,6441,6290,0,0,0,0,0,0,0,0,0,0,0,0,0,0,0,0,0,0,0,0,0,0,0,0,0,0,
0,0,0,0,0,6363,6517,6517,6517,6517,6517,6517,6517,6366,0,0,0,0,0,0,0,0,0,0,0,0,0,0,0,0,0,0,0,0,0,0,0,0,0,0,
0,0,0,0,0,6439,0,11071,0,0,0,0,0,6442,0,0,0,0,0,0,0,0,0,0,0,0,0,0,0,0,0,0,0,0,0,0,0,0,0,0,
0,0,0,0,0,6439,0,0,0,0,0,0,0,6442,0,0,0,0,0,0,0,0,0,0,0,0,0,0,0,0,0,0,0,0,0,0,0,0,0,0,
0,0,0,0,0,6439,0,0,0,0,0,11028,0,6442,0,0,0,0,0,0,0,0,0,0,0,0,0,0,0,0,0,0,0,0,0,0,0,0,0,0,
0,0,0,0,0,6439,11418,11419,11420,0,0,0,11001,6518,6441,6441,6441,6441,6441,6441,6441,6441,6441,6441,6441,6441,6441,6441,6441,6441,6441,6441,6441,6441,6441,6441,6441,6441,6441,6441,
0,0,0,0,0,6439,11450,11451,11452,0,10996,0,0,6594,6517,6517,6517,6517,6517,6517,6517,6517,6517,6517,6517,6517,6517,6517,6517,6517,6517,6517,6517,6517,6517,6517,6517,6517,6517,6517,
0,0,0,0,0,6439,11482,11483,11484,0,0,0,0,0,0,0,0,0,0,11001,0,0,0,0,11134,0,0,0,0,0,0,0,0,10996,0,0,0,11000,0,0,
0,0,0,0,0,6439,0,0,0,0,0,0,0,0,0,0,11031,0,0,0,0,0,0,0,0,0,0,11032,0,0,0,0,0,0,0,0,0,0,0,0,
0,0,0,0,0,6659,7960,7960,7960,7960,7960,7960,7960,7960,7960,7960,7960,7960,7961,7961,7961,7961,7961,7961,7961,7961,7961,7961,7961,7961,7961,7961,7961,7961,7961,7961,7961,7961,7961,7961
</data>
 </layer>
 <layer id="6" name="lights" width="40" height="11">
  <data encoding="csv">
0,0,0,0,0,0,0,0,0,0,0,0,0,0,0,0,0,0,0,0,0,0,0,0,0,0,0,0,0,0,0,0,0,0,0,0,0,0,0,0,
0,0,0,0,0,0,0,14524,0,0,0,0,0,0,0,0,0,0,0,0,0,0,0,0,0,0,0,0,0,0,0,0,0,0,0,0,0,0,0,0,
0,0,0,0,0,0,0,14540,0,0,0,0,0,0,0,0,0,0,0,0,0,0,0,0,0,0,0,0,0,0,0,0,0,0,0,0,0,0,0,0,
0,0,0,0,0,0,0,0,0,0,0,0,0,0,0,0,0,0,0,0,0,0,0,0,0,0,0,0,0,0,0,0,0,0,0,0,0,0,0,0,
0,0,0,0,0,0,0,0,0,0,0,0,0,0,0,0,0,0,0,0,0,0,0,0,0,0,0,0,0,0,0,0,0,0,0,0,0,0,0,0,
0,0,0,0,0,0,11739,0,0,0,0,0,0,0,0,0,0,0,0,0,0,0,0,0,0,0,0,0,0,0,0,0,0,0,0,0,0,0,0,0,
0,0,0,0,0,0,11771,0,0,0,0,0,0,0,0,0,0,0,14524,0,0,0,0,0,0,0,0,14524,0,0,0,0,0,0,0,0,14524,0,0,0,
0,0,0,0,0,0,0,0,0,0,0,0,0,0,0,0,0,0,14540,0,0,0,0,0,0,0,0,14540,0,0,0,0,0,0,0,0,14540,0,0,0,
0,0,0,0,0,0,0,0,0,0,0,0,0,0,0,0,0,0,0,0,0,0,0,0,0,0,0,0,0,0,0,0,0,0,0,0,0,0,0,2711,
0,0,0,0,0,0,0,0,0,0,0,0,0,0,0,0,0,0,0,0,0,0,0,0,0,0,0,0,0,0,0,0,0,0,0,0,0,0,0,0,
0,0,0,0,0,0,0,0,0,0,0,0,0,0,0,0,0,0,0,0,0,0,0,0,0,0,0,0,0,0,0,0,0,0,0,0,0,0,0,0
</data>
 </layer>
 <layer id="5" name="stuff" width="40" height="11">
  <data encoding="csv">
0,0,0,0,0,0,0,0,0,0,0,0,0,0,0,0,0,0,0,0,0,0,0,0,0,0,0,0,0,0,0,0,0,0,0,0,0,0,0,0,
0,0,0,0,0,0,0,0,0,12968,12969,12753,12754,0,0,0,0,0,0,0,0,0,0,0,0,0,0,0,0,0,0,0,0,0,0,0,0,0,0,0,
0,0,0,0,0,0,0,14553,0,12984,12985,12769,12770,0,0,0,0,0,0,0,0,0,0,0,0,0,0,0,0,0,0,0,0,0,0,0,0,0,0,0,
0,0,0,0,0,0,11546,14569,11546,13000,13001,12767,12768,0,0,0,0,0,0,0,0,0,0,0,0,0,0,0,0,0,0,0,0,0,0,0,0,0,0,0,
0,0,0,0,0,0,0,0,0,0,0,0,12804,0,0,0,0,0,0,0,0,0,0,0,0,0,0,0,0,0,0,0,0,0,0,0,0,0,0,0,
0,0,0,0,0,0,0,0,0,0,0,0,0,0,0,0,0,0,0,0,0,0,0,0,0,0,0,0,0,0,0,0,0,0,0,0,0,0,0,0,
0,0,0,0,0,0,0,0,0,0,0,0,0,0,0,0,0,0,0,0,0,0,0,0,0,0,0,0,0,0,0,0,0,0,0,0,0,0,0,0,
0,0,0,0,0,0,0,0,0,0,0,0,0,0,0,0,0,0,14553,0,0,0,0,0,0,0,0,14553,0,0,0,0,0,0,0,0,14553,0,0,0,
0,0,0,0,0,0,0,0,0,0,0,0,0,0,0,0,0,0,14569,0,0,0,0,0,0,0,0,14569,0,0,0,0,0,0,0,0,14569,0,0,1799,
0,0,0,0,0,0,0,0,0,0,0,0,0,0,0,0,0,0,0,0,0,0,0,0,0,0,0,0,0,0,0,0,0,0,0,0,0,0,0,1875,
0,0,0,0,0,0,0,0,0,0,0,0,0,0,0,0,0,0,0,0,0,0,0,0,0,0,0,0,0,0,0,0,0,0,0,0,0,0,0,0
</data>
 </layer>
 <layer id="8" name="collision" width="40" height="11" visible="0">
  <data encoding="csv">
0,0,0,0,0,0,0,0,0,0,0,0,0,0,0,0,0,0,0,0,0,0,0,0,0,0,0,0,0,0,0,0,0,0,0,0,0,0,0,0,
0,0,0,0,0,8849,8849,8849,8849,8849,8849,8849,8849,8849,0,0,0,0,0,0,0,0,0,0,0,0,0,0,0,0,0,0,0,0,0,0,0,0,0,0,
0,0,0,0,0,8849,8849,8849,8849,8849,8849,8849,8849,8849,0,0,0,0,0,0,0,0,0,0,0,0,0,0,0,0,0,0,0,0,0,0,0,0,0,0,
0,0,0,0,0,8849,0,0,0,0,0,0,0,8849,0,0,0,0,0,0,0,0,0,0,0,0,0,0,0,0,0,0,0,0,0,0,0,0,0,0,
0,0,0,0,0,8849,0,0,0,0,0,0,0,8849,0,0,0,0,0,0,0,0,0,0,0,0,0,0,0,0,0,0,0,0,0,0,0,0,0,0,
0,0,0,0,0,8849,0,0,0,0,0,0,0,8849,0,0,0,0,0,0,0,0,0,0,0,0,0,0,0,0,0,0,0,0,0,0,0,0,0,0,
0,0,0,0,0,8849,0,0,0,0,0,0,0,8849,0,0,0,0,0,0,0,0,0,0,0,0,0,0,0,0,0,0,0,0,0,0,0,0,0,0,
0,0,0,0,0,8849,0,0,0,0,0,0,0,8849,8849,8849,8849,8849,8849,8849,8849,8849,8849,8849,8849,8849,8849,8849,8849,8849,8849,8849,8849,8849,8849,8849,8849,8849,8849,8849,
0,0,0,0,0,8849,0,0,0,0,0,0,0,0,0,0,0,0,0,0,0,0,0,0,0,0,0,0,0,0,0,0,0,0,0,0,0,0,0,0,
0,0,0,0,0,8849,0,0,0,0,0,0,0,0,0,0,0,0,0,0,0,0,0,0,0,0,0,0,0,0,0,0,0,0,0,0,0,0,0,0,
0,0,0,0,0,8849,8849,8849,8849,8849,8849,8849,8849,8849,8849,8849,8849,8849,8849,8849,8849,8849,8849,8849,8849,8849,8849,8849,8849,8849,8849,8849,8849,8849,8849,8849,8849,8849,8849,8849
</data>
 </layer>
 <objectgroup id="9" name="collision_objects">
  <object id="1" x="293" y="52" width="124" height="52"/>
  <object id="2" x="228" y="99" width="24" height="14"/>
  <object id="9" x="220.667" y="206.333" width="36.3333" height="61.3333"/>
  <object id="10" x="194" y="172" width="28.3333" height="39.6667"/>
  <object id="11" x="266.667" y="108.333" width="13" height="13.6667"/>
  <object id="12" x="201.667" y="108.333" width="14.3333" height="15"/>
 </objectgroup>
 <objectgroup id="10" name="objects">
  <object id="3" name="mushroom" x="216" y="86" width="48" height="60"/>
  <object id="4" name="washer" x="354" y="70" width="62" height="63"/>
  <object id="7" name="player_spawn" x="1233.75" y="273" width="11" height="12"/>
  <object id="8" name="door_to_bathroom" x="1271" y="255" width="8.33333" height="65.6667"/>
 </objectgroup>
</map>
